/* XPM */
static char *rcp05453322982367[] = {
/* columns rows colors chars-per-pixel */
"64 64 256 2 ",
"   c #040203",
".  c #0B0203",
"X  c #0C0509",
"o  c #140304",
"O  c #1B0305",
"+  c #140509",
"@  c #1B0409",
"#  c #1B090B",
"$  c #180909",
"%  c #110F1D",
"&  c #230403",
"*  c #2C0304",
"=  c #2B0906",
"-  c #240509",
";  c #2C050A",
":  c #24090C",
">  c #2B0B0B",
",  c #240806",
"<  c #330402",
"1  c #3C0403",
"2  c #340B05",
"3  c #3B0B02",
"4  c #330609",
"5  c #3B0609",
"6  c #330B0B",
"7  c #3B0B0B",
"8  c #3C120D",
"9  c #391207",
"0  c #290F14",
"q  c #3C0D11",
"w  c #3B1412",
"e  c #391815",
"r  c #2E120F",
"t  c #381E27",
"y  c #420503",
"u  c #4C0402",
"i  c #430B01",
"p  c #4B0B03",
"a  c #430C0C",
"s  c #4C0C0C",
"d  c #490609",
"f  c #530500",
"g  c #530B03",
"h  c #5C0C02",
"j  c #540B0A",
"k  c #5B0E0C",
"l  c #5A0604",
"z  c #441303",
"x  c #4B1302",
"c  c #4B1A03",
"v  c #44120C",
"b  c #4B140B",
"n  c #4D1B0C",
"m  c #441808",
"M  c #541302",
"N  c #5C1303",
"B  c #531B02",
"V  c #5B1B02",
"C  c #54120C",
"Z  c #5B130C",
"A  c #5C1C0C",
"S  c #541C0C",
"D  c #420E11",
"F  c #4D0F11",
"G  c #560D12",
"H  c #431313",
"J  c #4B1313",
"K  c #4C1B14",
"L  c #481A18",
"P  c #531413",
"I  c #5C1312",
"U  c #5B1B13",
"Y  c #551B17",
"T  c #630C02",
"R  c #6C0D02",
"E  c #630D0A",
"W  c #690A07",
"Q  c #730C03",
"!  c #730E0A",
"~  c #641302",
"^  c #6B1402",
"/  c #631C02",
"(  c #6A1C03",
")  c #63130C",
"_  c #6C130B",
"`  c #651B0C",
"'  c #6C1B0D",
"]  c #741402",
"[  c #751B02",
"{  c #7B1B02",
"}  c #74140B",
"|  c #751C0B",
" . c #7B1C0B",
".. c #7C1508",
"X. c #631412",
"o. c #6B1512",
"O. c #641B13",
"+. c #6C1B13",
"@. c #68191B",
"#. c #741B14",
"$. c #7C1D12",
"%. c #781713",
"&. c #650E12",
"*. c #5C2301",
"=. c #57230A",
"-. c #4D231A",
";. c #592516",
":. c #4C2503",
">. c #632402",
",. c #6C2402",
"<. c #6C2B01",
"1. c #682809",
"2. c #742301",
"3. c #7C2403",
"4. c #722C01",
"5. c #7B2C02",
"6. c #74230B",
"7. c #7B240C",
"8. c #7B2C0D",
"9. c #722A0B",
"0. c #69340A",
"q. c #7C3302",
"w. c #783808",
"e. c #6D2313",
"r. c #672617",
"t. c #732412",
"y. c #7B2312",
"u. c #762918",
"i. c #693318",
"p. c #783716",
"a. c #6F1825",
"s. c #562A27",
"d. c #672925",
"f. c #792C24",
"g. c #6B3928",
"h. c #7A3726",
"j. c #723931",
"k. c #5F1C25",
"l. c #794314",
"z. c #75432F",
"x. c #841E01",
"c. c #861A09",
"v. c #831C13",
"b. c #881E14",
"n. c #901E13",
"m. c #832402",
"M. c #8B2402",
"N. c #852C00",
"B. c #8C2C03",
"V. c #83240B",
"C. c #8B250B",
"Z. c #8C2A0C",
"A. c #852D0C",
"S. c #952D01",
"D. c #95280A",
"F. c #843301",
"G. c #8C3303",
"H. c #833B02",
"J. c #8D3B02",
"K. c #88380C",
"L. c #943302",
"P. c #9B3402",
"I. c #933B03",
"U. c #973909",
"Y. c #8D2413",
"T. c #842B14",
"R. c #8C2B12",
"E. c #852718",
"W. c #942D14",
"Q. c #972917",
"!. c #873618",
"~. c #983816",
"^. c #A32B0A",
"/. c #A33C03",
"(. c #A73A08",
"). c #A73715",
"_. c #B83B14",
"`. c #AA3110",
"'. c #883525",
"]. c #983B24",
"[. c #912D23",
"{. c #A83A21",
"}. c #C33E15",
"|. c #894407",
" X c #9D4402",
".X c #9A4708",
"XX c #8A4715",
"oX c #984817",
"OX c #995316",
"+X c #87571A",
"@X c #A34D02",
"#X c #AB4B03",
"$X c #A34C0C",
"%X c #A74506",
"&X c #B44805",
"*X c #AB530D",
"=X c #A85606",
"-X c #BC5B04",
";X c #B65707",
":X c #A74716",
">X c #B84516",
",X c #AA5617",
"<X c #B35B12",
"1X c #B85917",
"2X c #B7630A",
"3X c #B86518",
"4X c #AC6212",
"5X c #864728",
"6X c #975727",
"7X c #914E31",
"8X c #A95726",
"9X c #AD4D27",
"0X c #966732",
"qX c #B86827",
"wX c #B67030",
"eX c #9D601D",
"rX c #C35805",
"tX c #C5471A",
"yX c #C8581A",
"uX c #C56707",
"iX c #C56A16",
"pX c #D26914",
"aX c #C87514",
"sX c #D37610",
"dX c #CA4C27",
"fX c #C66B27",
"gX c #C97826",
"hX c #D57926",
"jX c #CE7433",
"kX c #EC7630",
"lX c #E07F0A",
"zX c #966F52",
"xX c #AF6E4B",
"cX c #B17C67",
"vX c #9D5E4C",
"bX c #D7831A",
"nX c #E88D18",
"mX c #DE8522",
"MX c #D48737",
"NX c #E79433",
"BX c #F18F30",
"VX c #FCA232",
"CX c #B48656",
"ZX c #B28C6B",
"AX c #CD8F4D",
"SX c #C7916A",
"DX c #DAA374",
"FX c #F2B372",
"GX c #E5A352",
"HX c #9E9133",
"JX c #CBAA91",
"KX c #D6B7A3",
"LX c #EFB58F",
"PX c #E1C9B1",
"IX c #FEE9EE",
"UX c #F5E1D0",
/* pixels */
"KXJXzXzXZXCXDXDXPXUXIXIXIXIXIXUXIXUXPXUXPXKXJXzXSX0X0X+X6X6X6XXXp.<.|.w.V i.ZXHXGXFXAXDXDXCXCXAXwX7X5Xq.AXSXLXAXF.8XqXjXjXAXFXFX",
":.zXJXzX5X0X0XxXCXZXJXKXJXJXKXPXKXcXzXCXvXvX7Xl.B x h.i.r.r.u.e.w.V e.!.J.=XGXDXxX6X|.AXAXXXp.cX|.A.( H.MXAXAXMX,X$X X@X X$XqXwX",
"0.i.5X0.p.XXq.OX0X+X0XCXCX0X0X0X6XXX0X0Xp.p.H.wXp.h.vXj.r.Z r.e.0.9.7.9X<XiXfX9Xu.8.XXH.OXoXA.y.F.oX2. X3XoX.XgXyX#X#X;X-X<X*XqX",
"5X<.<.q.H.q.H.gX|.|.wXGXAXeX6XxX.X4.p.!.7X8XJ.jX4X|.p.>.1.*.<.q.g OX4XiX*X9X:XB.5.A.~.3.W.S.I.P.=X8X.XiX2XP./.sXpX-XpXpXpX1XL..X",
"2.oXoX,X,X X<X3XqX X=XMXGXgX,XoX=XF.!.9.K.H.,.xXwXq.,./ '.p.w.OXU.MXmXaXG.7.8.!.2.oXoXW.D.M.iX-X*XN.I.hXmXyXfXuXrXrXpX&X&X;XS.~.",
"J.3X X@X<X;XiX@X3X@X<XgX<XJ.I.$XNX.X2.2.wXwX4./ !.N N Z f.) h 8.nXhX<X<X.X,.V k.T ~.I.=X2X<XjXP.@X{ B.1X-X:XfX&XP.;X-X/.%X:XU.~.",
"=X3X2X=X=X@X;XiXiX@X X*X<X2XaXaXaX=X:X$XgX=Xq.` h h e./ !.6.[ ].lX#XM..X1XJ.8.+.E.T ^ fXgX*XU.B. X~.B.%XM.M.)./.B.1X&XP./.B.] R ",
"=X2XaXaXbXNX2X3X2X;X<X<X#X;XsXnXuX;X1X#XuX XK.u.6.8.K.>.q.5.N..XfX-X;X%X9Xb.~.S.m.3.E.E.T Z.G.G.I.9Xm.$XL.9XW.P.m.1XP.L.$XB.V.$.",
"1XiX;XuXVXVX2X@X X,X$X,X3X=XiXmXuXpXpX-XMXjX5.8.G.m.:XG.m.G.{ ~.pXkX:XR.E.T 9XL.U.L.L.S.D.D.D.~././.&X&X&X&X/.S.rXrXrX&X>X~.h p ",
"=XiXaXsXBXmX2X3X X$X.X,X<X@X;XiXsXhXuX;XiX<X2.8.U.N.~.B.m.B.3.U.rX%X{ R.].{ K.m.P.P.P.P.P.P.(.:X/.&X&X&X%X%X/./.yX/.yXyXP.W.8.M ",
" XiXsXsXbXuX@X*X@X@XJ..X,X X#X;XuXhXrX;X;XI.N.~.U.I.G.N.m.N.B.G.B.{ ^ K.A.[ ] 3.L.P.P./././.(.(.&X>X>X%X/.%X%X:X:Xm..X$XM.D.T./ ",
";XiXsXbXmXiX@X X=X<XI.J..X$X*X#XuXmXuX2X1XL.U.~.U.U.G.B.B.B.U.B.T.A.K.~.3.!.| [.B.B.L.U.U.P.S.S.:X(.P.S./.:X(.S.{ 2.4.[ Z.W.[ 6.",
"4X2X2XaXaX2X$X$X<XfX.XF.G.$X1X%XhXNXsXuX*XB.D.L.L.U.G.G.B.A.Z.m.'.y.A.G.3.~.R #.Z.Z.C.Z.C.x.x.x.W.M.x.M.L.).D.M.$.' ( ^ W.~.{ 6.",
"4X4X2X2X#X X X:X*XfX.X5.F..X,X%XjXNXlX-X/.Z.Z.G.N.G.U.B.m.V.3.{ | R m.B.{ ^ u ) [.E. . ...} { V.{ V.Z.Z.B.S.W.W.'.h e.u. .Q.R.~ ",
"8X,X3X3X*X X%X,X X,XI.F.U..X$XI.1XsXnX;XL.~.W.G.3.N.:XV.[ V.]  .{ V.~.W.V.^ ~ e.y.| _ | |  . .7.} V.R.R.Z.Z.W.W.E.l 6.y.R b.E.T ",
"q.5.J.*X*X%X XI.I.I.N.K.:X$X%X%X/.uXnX-XL.].A.F.3.N.9XV.] T.R E.m.D.W.Q c.y.u.f h h ~ y.T.8.3.[ } } { { C.W.Y.c.] ^ ( h } v.R y.",
"p.q.U.,X,X.XI..XA.G.F.$X,XoX,XG.(.-XaX=X5.( 2.2.2.oXoX( l } C.x.M.M.Z.R.T.t.~ g T ] Y.W.C. .| | M.x.W.C.Z.].{ R #.h h X.X.Z ) u.",
"XXH.F.U.I.G.F.J.I.I. X<X.X3.U.J.%X-XNXMX2.o.7X~.T | 8.6.' y.R.B.!.E.| ] ] { m.x.:X:X).W.m.{ 6.y.~.Z.R.] ] E. .y.| T T _ ` T T ] ",
"|.H.F.J.N.3.G.oX%X#X#X<XJ.^ 5.K.%X@X2X*X[ _ E.[ $.^ T T T ^ V.~.' ~ h R C.).tXyX1X>X(.B.[ ^ / ` 7. .y.^ T | ~ E ^ T ^ |  .] { D.",
"|.H.H.K.U.G.J..X;X-XuX<XU.2.8.8.U.$XN.G.8X~.] G.V.{ 3.A.T.y.| 7.6.| | T.~.).(.(.M.B.B.3.^ h g g T _ #.' ) ) l f g g N +.y.{ C.).",
"OXH.4.H.XXXXG.m.%XrXhX<XN.7.t./ ( K.F.,XjX$XG.fX1X<X<X$XR.y._ ^ Z.C.C.R.R.V.[ ^ Q {  .#.E j j I ) +._ E T E o.o.s s s Z ) ^ { Z.",
"|.|.K.w.q.F.I.$XL.;XhX.X^ ' ` M i u 8.8X,XJ.J.@X,X<X@XN.] ] $.y.x.x.] ^ _ ` ` r.y.#.+.k j j E @._ | E _ W T %.%.P s d j k ^  .C.",
"q.K.XXK.4.5.$XfXI.$X3XH./ u.1.M b p r.!.F.F.F.2.u ~ 3.M.C.R.W.Z.7.6.' h f f C U r.U j d j E } v.T } R $.$.Q v.Q o.E l T _ v.Y.Q.",
"|.H.4.4.w.|..X=X8XJ.|.4.,.5Xp.V 3 s.C u ^ 7.#.a.a.@.y.R.Y.C.x.m.j C I C j f N ` x i y s O.y.V.x.} V.} E.Y...Y.c.v.} R Q ..C.D.D.",
"OXXXp.5Xp./ 2.F.gXH.,.1.9.p.O.G C Z / ~ ^ 6.y.#.] { Z.V.].{ ] ^ N '.h f +.Z P 5 f f g j Z ) _ _ ! Q Q x.C.R.Y.v.@.&.W c.`.D.M.).",
"<.>.V B M N 5.K.|.N g M >.w.,.~ N 6.!.!.T.T.y.^ _ T | y.y.~ ) ' g ' ` ~ u.O.y Y ) k f f l ) _ } ! ..c.C.D.Q.W.Y.&.E Q Y.`.D.x.W.",
"B *.c 3 1 B 9.!./ p O.e.<.4.4.F.2.5.7.~ ~ 6.7.( f.~ N t.h g O.f.Z f +.` e.) 1 d.u.+.) k E _ _ R E %.Y.D.^.).`.D._ R c.).Q.c.c...",
"c n -.8 3 S 1.9.A A 5X5X4.4.H.,XqX8X!.T h t.8.( '.^ ~ '.T ~ +.f.O.C Z N ) h u f.t.+.) X.+.#._ W l o.v.c.^.>X_.^.c.{ W.{.Q.c...Q ",
"c 3 L 8 7 S N 9.1.*.p.p.,.6.!.6X3XoX7.T #.'.!.( R.R { 9XT. .^ ^ O.r.f f g g +.e.h g f k X.+.o.} k o.} c.^.dXtX`.D.D.).{.C.c.$.W ",
"=.3 v < 3 A N 5.p.V >.,.( e.+.t.4.~ u u ' '.u.( R.] m.oXV.] ] | h e.f g C Z u.h Z g p d s k X.o.X.o.} c.`.dXdXtX_.`.).Q.c. .%.! ",
";.x ;.< i p.4.F.d.M / ( ` O.g M p.1./ N ~ ~ E k E. .V.7.[ l ' '.^ ' ` Z C U O.u Y K J a a d j I I X.} c.Q._.>X_._.>X`.c.c.v.%.} ",
"B x ;.1 M 7XK.I.G u ,.9.) Z M *.S ;.i.p.t.) X.a.T ' '.t.t.f ) f.T.^ u.Z p I u u < 3 7 q 7 a s P j k ! ..c.D.^.`.}.tX^.c.c.v.} %.",
"4.p.=.i M 8.i.i 0 * XX8X^ T r.x ;.M V 7X].^ 7.C.h ' r.U p j X.@.E ) C a 7 7 4 * 7 < < 7 a 5 5 J u g k E W Q v.[._.`.^.D.c.c.v.v.",
"|.p.0.*.<.p.1.c r * l.oX[ u.r.S M u g t.( ^ E.V._ ` Z g p C G j +.X.j y 5 5 7 q 7 < < 7 a 5 5 s d j ) X.W W ..b.^.`.).~.V...b.[.",
"OXw.>.0.p.w.>.B e * p.K.6.f.S B N f ` N f t.'._ #.+.Z g s C C s O.Z F J D < < < 6 < < 7 a 5 y d j j I X.) T W } n.Y.Y.Y.Y.Y.Q.Q.",
"K.>.*.1.p.9.V x 8 < r.1.1.p.p b e.N f.' f f.u.f ) X.O.Z p d J Y C s s Y L 5 < a 4 * < 5 5 y d s P C j Z Z h E _ %.} ! ..b.Q.n.c.",
"4.>.B =.9.9.V 3 3 < ;.B V i.x S r.g r.O.g r.Z u h Z Z j p y 7 H P y 1 7 7 7 L d.6 < < 5 a d F I U C j j g k ) +.E o.%.%.! ..b.Q.",
"q.0.1.=.1.9.A 3 c v Y b x B x s U i b C C C C U r.Z u j P J 7 < a 5 < 4 ; * 7 L 7 7 7 5 d F I @.I k j j g j I @.@.o.o...$.v.b.b.",
"H.w.0.1.<.4.>.c =.K q v 3 z =.y a v < v Y i x r.r.C p C Y Y a < 1 7 q 6 = & & & 4 7 7 a s F G G Z k Z I k j j I u.o.T ! b.E.v.] ",
"|.w.0.0.q.4.>.*.B K 4 H z :.z.Y ; L * 9 ;.1 i S m x C I I s 7 a 5 q q - O , r r * 4 7 a a s d u k ) O.@.X.j d d N ) _ } ....} } ",
"|.|.XX>.u.e.V :.< 3 < 3 n K v K -.n z 3 i b n b s s a v H D 7 5 7 7 7 7 7 7 4 * ; ; ; 4 6 7 7 7 b s j k g u p x G I k l _ E.Y.b.",
"XXw.l.>.1.u.=.z z g.z.;.z 3 < < < z K n v v b b v a a a a 7 7 7 * * * * < < < * ; ; ; 4 5 7 5 7 s s s k I k j C I X.E T _ $.v...",
"p.<.w.0.V 1.n 2 < i.g.n 3 z ;.g.v K K v 3 3 v v v a a 7 7 6 7 7 * * * * < 4 4 4 ; ; ; < 5 5 5 5 F s d G X.X.C j G I X.E _  ...Q ",
"9.1.l.+X>.p.;.w S S z z n n S d.-.L 9 2 v K b 3 7 7 7 7 6 4 6 6 6 4 ; ; 4 6 4 ; ; ; ; 4 5 5 5 5 P s s G I I j j j k ) ) _ %.%.} ",
"w.B =.l.*.p.=.4 =.m 3 z ;.;.3 < 6 6 8 w L -.H < < 2 6 6 6 4 ; ; 6 > = & * = & & ; ; ; 4 4 5 5 7 J s s s j j k X.j k X.X.#.#.#.} ",
"XXx < 3 B w.=.* * 9 3 < K s.-.2 & r e e 4 4 7 7 ; ; > 6 6 > - & ; - & & ; ; - & - - ; ; ; 4 5 6 a a 7 a d s I @.I I X.X.o.o.o.o.",
",X<.n z 0.l.0.n 2 -.w * 2 L L w 6 e e 4 & & < w 6 = & = > > , O - - - : > > : - @ @ - - - ; ; ; D 7 2 7 a s I @.I I Z k Z E ) X.",
".Xw.g.K i.<.*.=.9 e e e e r = 6 = 6 w 6 6 4 4 ; 9 = & & > > , O & & - - : - & O o O O O - & & = H 7 2 7 H J P G Z j j g g l k X.",
"|.|.w.*.B i.i.z =.i.z.3 c * 9 2 = = = = = > > > @ O O O : : - O @ @ @ @ @ @ @ O @ @ + + O @ ; ; 6 6 5 7 a F F s D P ) k u d )  .",
"H.q.<.V B 1.i.B 3 z ;.c z.-.-.w 6 6 6 > > > > , @ O O O : : @ O @ @ @ @ @ @ O O o o o + + O - ; 4 4 4 7 D J P J F j g u p Z y.W.",
"4.4.H.|.w.p.i.A ;.n =.c j.K 8 = 6 6 > > > , - - @ O O O # # O o @ @ @ @ @ O o o o o o + O O O & ; ; ; 5 D J Y P C j u 1 a e.).yX",
"8.5.XXOXXXp.r.U ;.v z 3 ;.w r > = = , , & O O O # @ O O @ @ o o @ @ @ @ @ @ o o o o + + O O - - = = ; 7 q H L P k j s a v e.1XkX",
"p.9.4.4.>.V A U < 9 v 3 L 8 > O & & & O O O O O @ O O O O O o o $ $ $ $ $ $ o + o o o o O O @ - - ; ; 6 7 D H J g I Y L H 1.1XBX",
"r.V *.>.B c S P 7 -.-.2 < & O O & O & O # @ # # o o + + o o o o $ $ $ $ $ $ o o . . o o O O O @ - - > ; 4 7 D D s U d.k.J A oXkX",
"B c ;.;.;.;.;.z 6 8 2 * * & : t , # O O O @ O @ o o + + o o + + . o o o o . . .   . + @ - @ O o O - - ; ; 7 q H J P U r.Y C 6.~.",
"c m b H 7 L K 9 6 2 * w e & o 0 # O O O o o o o . o o + + + + + . . . . . . . .   . # 0 0 : O o O O - ; ; 4 7 H L s g U U s g ~ ",
"n z 3 2 8 8 v H : , & & & - @ @ $ # # # # O o o $ o o o + + o . + X . . . . . . . . o # # @ o @ . o O # O O & > 6 H a 6 s.7 S ~ ",
"z z z H H 8 7 7 - & & = > : O o + + + $ + o o . + o . o + + . . . . . . . . . . + o o $ @ o o @ $ # # # O O O & 1 Y C < 7 H 7XxX",
"x z b H 8 < * < - & & = r 0 O . o o o o o . . . . . . . . . . . . . . . . . X X # + . o o . o @ o o + O O O & & u u.e.r.a 3 r.7X",
"S b v 7 ; * 4 w @ O & = > : @ . . . . . . . . . . . . . . . . .         . X X X $ X . . . . . + . o o o O O & O f | ( 5Xd.J i ` ",
"n v 7 4 ; > e -.O O - & O O o + . . . . . . . .     . . . .     X         . X X X     X X . . o + # + o O & & O ` !.( u.P J s N ",
"v 7 4 > - & - > o + @ O o . X X . . . . . .           X                               X X X . o o + o o : r r & v j.A 1 & 7 Y M ",
"v 2 = - O o . . X X o o . .                                                           X X . . X . o o o : e e , . > < & < H d.A ",
"8 = & O $ + o $ X . . . . X                                                             .   . X # # + o O > , o % # & 9 s.w n p "
};
