/* XPM */
static char *rcp05232357457640[] = {
/* columns rows colors chars-per-pixel */
"64 64 246 2 ",
"   c #050103",
".  c #0B0204",
"X  c #130304",
"o  c #1C0405",
"O  c #17070A",
"+  c #170E11",
"@  c #220506",
"#  c #230509",
"$  c #2B0808",
"%  c #340B0B",
"&  c #3A0E0B",
"*  c #380B06",
"=  c #3D100B",
"-  c #3D1105",
";  c #3D0F10",
":  c #2B191D",
">  c #1D2537",
",  c #3A2F33",
"<  c #211B25",
"1  c #470B0B",
"2  c #520D0E",
"3  c #5C0D0C",
"4  c #5A0B06",
"5  c #44130A",
"6  c #4B140B",
"7  c #4B1706",
"8  c #531B04",
"9  c #531A0A",
"0  c #591708",
"q  c #4B1411",
"w  c #441313",
"e  c #531311",
"r  c #581813",
"t  c #490F10",
"y  c #630D0B",
"u  c #6A0E0A",
"i  c #6C130C",
"p  c #671808",
"a  c #73130C",
"s  c #7B150D",
"d  c #7C1A0B",
"f  c #751C08",
"g  c #671A14",
"h  c #731912",
"j  c #720F0C",
"k  c #5C2405",
"l  c #5A2209",
"z  c #542919",
"x  c #642505",
"c  c #652A05",
"v  c #6B2C05",
"b  c #68260B",
"n  c #792406",
"m  c #742C05",
"M  c #7A2909",
"N  c #6C3107",
"B  c #743305",
"V  c #7C3306",
"C  c #7C3B05",
"Z  c #7A3409",
"A  c #672216",
"S  c #66361D",
"D  c #773615",
"F  c #732916",
"G  c #54342E",
"H  c #6C2F2D",
"J  c #601F22",
"K  c #7D4110",
"L  c #6F452B",
"P  c #293550",
"I  c #4B3C43",
"U  c #3A5379",
"Y  c #314769",
"T  c #384258",
"R  c #52494F",
"E  c #664850",
"W  c #485671",
"Q  c #6B5965",
"!  c #56657E",
"~  c #776E71",
"^  c #726A70",
"/  c #841C0E",
"(  c #861C0E",
")  c #871D10",
"_  c #8B2B06",
"`  c #872809",
"'  c #95280D",
"]  c #833B05",
"[  c #8B3B05",
"{  c #85330A",
"}  c #893707",
"|  c #9B3B06",
" . c #963707",
".. c #8A2111",
"X. c #982811",
"o. c #833D12",
"O. c #943617",
"+. c #A43D05",
"@. c #A63C06",
"#. c #A83513",
"$. c #B13513",
"%. c #9B3622",
"&. c #8B4209",
"*. c #884406",
"=. c #9C4306",
"-. c #97470A",
";. c #844217",
":. c #964813",
">. c #985417",
",. c #945114",
"<. c #A24C06",
"1. c #A74A09",
"2. c #B34A05",
"3. c #B44803",
"4. c #A4530B",
"5. c #AC530A",
"6. c #AD590B",
"7. c #A75607",
"8. c #B35B06",
"9. c #B25B0B",
"0. c #B75307",
"q. c #A75816",
"w. c #B65E15",
"e. c #AD4518",
"r. c #B86309",
"t. c #B96716",
"y. c #AF621A",
"u. c #985627",
"i. c #8C522E",
"p. c #A55925",
"a. c #A14F26",
"s. c #9C6336",
"d. c #B26D31",
"f. c #C55C08",
"g. c #C2481B",
"h. c #C7670A",
"j. c #C56913",
"k. c #CA7517",
"l. c #D57D13",
"z. c #D4720B",
"x. c #C85D21",
"c. c #CA752D",
"v. c #E77D2E",
"b. c #977154",
"n. c #A37659",
"m. c #B3784A",
"M. c #947870",
"N. c #AA7B65",
"B. c #8B5E4F",
"V. c #DA8115",
"C. c #DA8625",
"Z. c #D08735",
"A. c #E58D1D",
"S. c #BB8955",
"D. c #998172",
"F. c #B58E71",
"G. c #D49150",
"H. c #CC9A67",
"J. c #D1A377",
"K. c #E8A95F",
"L. c #3C5E84",
"P. c #5A7596",
"I. c #52698B",
"U. c #637C9A",
"Y. c #667795",
"T. c #707688",
"R. c #405F82",
"E. c #867B84",
"W. c #76859C",
"Q. c #6D809D",
"!. c #6C87A5",
"~. c #768CA7",
"^. c #7B93AD",
"/. c #7790AB",
"(. c #7D97B1",
"). c #948D94",
"_. c #91898E",
"`. c #A58C88",
"'. c #A69898",
"]. c #B29689",
"[. c #8395AD",
"{. c #8694A8",
"}. c #849BB4",
"|. c #899DB5",
" X c #9699A4",
".X c #8CA3BA",
"XX c #8BA1B7",
"oX c #92A5BB",
"OX c #94A9BE",
"+X c #9AA8BA",
"@X c #9FA2AC",
"#X c #A2AEBD",
"$X c #B7B6B9",
"%X c #B1ABAD",
"&X c #AFA19B",
"*X c #CFAE91",
"=X c #C7B9B3",
"-X c #E1CABA",
";X c #95ABC1",
":X c #9AAEC2",
">X c #9DB1C5",
",X c #A3B4C5",
"<X c #A3B6C9",
"1X c #A6B9CB",
"2X c #ABBCCD",
"3X c #AAB6C5",
"4X c #B1BECD",
"5X c #BDBCC1",
"6X c #AEBFD0",
"7X c #B0BFD0",
"8X c #B3C0CE",
"9X c #BDC3CA",
"0X c #AFC1D1",
"qX c #B4C3D3",
"wX c #BAC7D4",
"eX c #BBC9D6",
"rX c #BDCBD9",
"tX c #AFC1CF",
"yX c #C9C6C9",
"uX c #C1CEDB",
"iX c #C6CBD5",
"pX c #C5D1DE",
"aX c #C9D4DE",
"sX c #CFD2D7",
"dX c #D1D5DC",
"fX c #DDCAC2",
"gX c #E9DAD2",
"hX c #F0E3DE",
"jX c #CBD6E1",
"kX c #CED9E3",
"lX c #C7D3E0",
"zX c #D3DCE5",
"xX c #D9DEE4",
"cX c #D5DFE8",
"vX c #D8DFE8",
"bX c #D7E0E8",
"nX c #DCE4EB",
"mX c #DAE2E8",
"MX c #E1E7ED",
"NX c #E2E9EF",
"BX c #F2E8E7",
"VX c #E5EAF1",
"CX c #EAEDF3",
"ZX c #EEF1F6",
"AX c #EEF2F8",
"SX c #F1F4F9",
/* pixels */
"*X].D.b.n.m.F.*X-XgXhXBXBXhXBXBXBXgXfXgXfX=X].n.m.s.p.>.s.i.u.;.o.Z o.D 9 D S.S.H.J.Z.J.H.m.H.S.d.&.:.V Z.H.*XG.:.4.t.c.c.G.K.K.",
"S b.F.n.i.s.m.d.m.S.J.*X*X*X*X*X*Xn.n.F.s.u.s.;.k z S L l l D b b 0 b [ :.4.G.G.d.p.q.c.c.:.;.d.1.{ b [ c.c.G.c.1.1.=.1.:.q.d.c.",
"b ;.*.D D ] ] ,.>.>.d.F.F.n.b.s.>.>.s.u.;.;.;.s.L D i.K 0 0 x b N x m 1.w.9.k.a.M { } [ 1.:.} { { m m q.w.=.1.k.w.5.1.0.f.5.1.j.",
"C C C C C *.-.t.,.-.d.H.S.q.d.u.,.B V :.,.o.[ d.y.[ :.D b 0 x Z x :.t.9.5.t.:.| ` V :.Z M M :. .1.4.1.0.h.5.q.k.h.z.z.f.h.f.1.[ ",
"B C &.-.<.4.6.r.t.,.9.C.A.k.q.>.y.V } b ;.D o.q.h.V 8 0 } { M [ :.l.V.k.| M p M M =.:.[ [  .f.0.2.} | j.z.h.f.0.0.f.f.2.0.2.| | ",
"*.7.7.7.r.7.8.6.r.4.5.r.h.4.Z 7.j.4.V M d.q.o.b V 0 8 p V p p } C.C.<.0.1.n f n f f [ 0.t.9.f.+. .n ` j.f.2.f.2.@.3.3.1.1.3._  .",
"4.r.r.7.8.r.r.r.r.6.9.8.8.8.h.z.z.5.=.0.h.7.m p 4 p f p n n f  .z.h. .=.1. .n n f f n 5.j.0.2. .1.+._ _  . .| | ` 0.3.| | _ n p ",
"8.r.z.z.l.C.8.h.r.6.6.6.6.8.z.A.h.0.m.F.F.M.M.B.;.D o.F M { n 1.z.0.1.1. .` @.` ` ` ` _ n ` _ _ | |  .@.|  .| |  .3.@. .+._ ` p ",
"r.h.r.h.A.K.8.5.<.<.7.6.6.9.h.l.h.H.sXlXpXwX2XqX$X@X@X).`.`.M.n.G.c.s.;.D F e.O. . . . .{ _ _  . .+.3.3.3.3.@. .2.f.0.0.3._ p 4 ",
"8.r.k.V.V.V.r.4.<.-.-.6.9.5.5.h.G.sXaXuXpXuXqXeXXX.X>X2XuXrXeX<X>X+X!.{.@X@X'.).`.&X`.`.'.`.N.F.N.m.m.d.w.e.e.@.3.@.f.0.|  ._ 4 ",
"=.j.C.l.l.h.6.=.<.-.-.-.<.6.5.y.yXkXzXlXqXlXaXuX1X<X2XqXeX1X1X1X>XeX1XOX2XqXrXlXrXkXlXkXcXkXpXkXjXaXaXiX$X=X%XF.m.O. .+._ ` ` 3 ",
"7.k.j.V.C.h.<.5.5.9.[ [ [ =.5.F.lXjXzXaXeXzXjXqX;X<XpXlXqX8X;X2X;X}.}.oX2XwX,X>XeXzXzXkXpXuXpXpXuXpXjXpXpXlXpXqXwX`.O.f _ _ p _ ",
"r.t.r.h.k.6.1.5.9.t.] [ -.=.d.9XrXlXqXpXpXpXlXqX<XqXrXqXqXrXaXeX1XI.W U.>X<X.X;XqXwX,XeXpXuXqXjXaXjXkXpX1X2XrX2X<X>XM.p _ 1.` f ",
"y.r.r.8.0.=.-.5.5.k.-.M [ 1.].qXuX:X1XqXqXeXeX0X2XpXrX6X;X>X<X.X.X}.U.U U./.!.OXrXkXqXeXkXcXaXaXjX2X1XzXrX;X2XrXOX:X_.M n { ` p ",
"q.7.9.r.0.=.1.<.=.6.[ _  .N.4XqXeX,XqXrXrXqXeXrXqXuXrXrXeXOX:X.X;X<X1X|.1X~.:XuXpXzXzXqX>XrXpX2XpXwX1XpX|.~.>XqX.X!.^ d d ` f i ",
"] C &.<.5.=.| =.=.} [ u.].wX1XrXuX6XqXrXrXqXrXuXqXrXrXeXuXrX6X1X0XqX2XpXbX1X<XqX2XpXlXwXqXeXaXwXwXqX2X2X.X/.,X2X}.U.Q f y f d a ",
"*.Z [ <.5.[ | =.} :.F.$XrXeXrXlXlXrXpXpXrXuXpXpXrXuXrXeXuXqX>X<X<XqXeXeXpXqXeXqXrXqX0XqX6X0XtX<XqXeX<X^.;XOX1XOX^./.E y a p a a ",
"*.C [ [ [ } } [ i.&XqX;X1X2XrXlXlXuXlXzXlXeXpXpXkXuXeXeXrXrXqXuXeXqXqXqXpXpXeXqXuXrXeX0X2XuXuXqX>X6X<X<X1XqX1X;X|.~.H 4 i 1 p d ",
"*.V ] [ } M { n.$XeX2X<X2XeXpXuXqX2XqXpXpXeXrXaXpX6XpXuXpXpXeXpXnXaXeXpXkXaXeXeXpX2XqXwXpXjXzXuX1XqX<X<XqXwX:X;XXXT.A d f 4 n _ ",
"-.] } } [ } n.zXkXuXpXpXpXwXqXuXeXqXrXpXzXrXpXkXlXaXkXkXzXzXlXkXNXkXpXpXuXeXpXlXpXqXwXrXuXrXkXpX>XXX;X2XpXwX;X:XXXT.3 f d ` _ ' ",
"-.] ] } [ >.=XnXzXzXzXnXkXjXpXzXnXrXlXnXnXbXcXzXzXzXzXzXzXzXzXkXpXpXeXrXqXrXpXlXlXlXpXaXkXrXpXzXpX0X1XuXlX2X.X:XXXQ 1 y 3 i d ` ",
"&.] ] ] } b.xXnXbXzXcXbXpXpXzXnXVXzXkXnXnXnXnXnXnXnXnXzXnXnXzXkXpXjXlXpXzXkXuXuXlXlXpXlXuXpXpXzXrXqXeXlXaX1X;X1XoXE 1 4 y u d ' ",
"] *.[ C m n.nXlXzXlXlXuXeXuXzXnXCXnXzXVXVXNXNXNXNXVXNXnXnXnXnXbXzXzXnXzXzXnXzXeXlXkXcXkXlXjXlXrXeXqXlXkXpX2X.X2X+XH 4 y y d ' ' ",
"C *.C B V i.dXwXuXeXwX2XqXrXzXzXnXnXVXCXZXZXCXVXVXCXCXNXNXnXnXnXnXnXnXnXnXNXNXnXcXnXnXbXnXcXzXqXqXuXuXlXuX6X.X6X@XH 4 i d ( X.' ",
"*.*.&.] m S yXqX1XwX>XqXoXpXzXzXnXnXCXCXZXAXCXCXCXCXCXCXCXVXVXVXVXNXNXnXnXNXVXnXnXVXNXNXVXnXnXcXpXpXkXzXpXqXXX1X Xg y / ..' ' #.",
"B v k 8 0 0 %XeX|.8XoX<X~.wXaXzXnXCXNXCXZXZXCXCXZXZXCXZXZXZXCXCXCXCXCXCXVXNXNXVXNXVXCXCXNXNXVXVXNXkXzXbXlXqX|.>X Xh d ' X.' ( X.",
"7 7 5 * 1 7 D.uX/..X|.!.XXjXzXnXnXNXCXCXCXZXZXZXZXZXAXZXCXZXZXZXZXCXCXCXCXCXCXVXCXCXCXCXVXCXCXCXnXpXkXzXlXqX|.2X'.h ( X.#.( s s ",
"8 8 x * 5 0 B.jX.X;X^.!.>XjXnXnXnXNXCXZXZXZXZXZXZXZXZXCXCXCXZXZXCXCXCXCXCXCXCXCXCXCXCXCXCXCXCXCXNXpXlXzXkXeX>XqX'.d X.#.X.s a a ",
"7 7 7 - 5 8 H sXqX2XoX|.,XaXnXNXNXNXCXZXZXZXZXZXZXZXCXCXCXZXZXCXCXCXCXCXCXCXCXCXCXCXCXCXCXVXCXCXnXpXlXzXjXlXeX0X`.X.$.#...d s j ",
"8 7 5 * * 8 S yXlXrX2X>X0XkXnXnXNXCXZXZXZXCXZXZXZXCXCXCXZXZXCXCXCXCXCXCXCXCXVXCXVXVXCXCXCXCXCXCXcXlXjXjXzXzXpX2X`.$.$.X.( ..s u ",
"k 8 8 * - v o.=XnXpXeX2XeXuXnXNXNXCXZXZXCXZXZXZXZXCXCXAXAXCXCXCXCXCXCXCXCXCXCXVXCXCXCXCXVXCXCXVXzXlXkXzXzXkXrXOX`.e.$...s ) a a ",
"k 7 k * 7 =.&.=XnXkXaXeXrXjXnXNXVXNXNXAXCXCXZXZXZXCXZXSXCXCXCXCXCXCXCXCXCXCXCXVXVXVXCXCXCXCXCXNXnXzXcXcXzXpXrXXXE.g.X...) / d s ",
"N k N - 8 V v '.VXzXkXrXpXzXnXnXNXCXnXCXCXCXCXCXCXCXZXZXCXCXCXCXCXCXCXVXVXVXVXCXVXVXVXCXCXCXCXVXnXbXnXzXjXpXwX.XE.e.X.X.d / ) / ",
"K *.B 8 v B m `.NXzXwX2XlXzXbXnXNXNXCXCXCXCXCXCXCXCXCXCXCXCXCXCXVXVXVXVXVXVXVXVXVXVXVXVXVXCXCXVXzXzXnXcXkXwX2X|._.e.$.X.) / X.X.",
"*.*.c c C Z x M.VXzXkXaXlXzXnXnXNXNXCXCXCXCXCXCXCXCXCXCXCXCXCXVXVXNXVXNXVXNXVXVXVXVXNXVXCXVXCXnXkXkXnXnXpXwX1XXX{.%.......) ) X.",
"C c 8 B ] v 8 M.VXnXkXpXlXzXnXnXNXnXVXCXCXCXCXCXCXCXCXCXVXVXVXVXVXCXVXNXVXNXNXVXVXVXVXVXVXVXVXNXzXzXcXzXeX2XOXXX{.H s s ..) ) ( ",
"c c 8 k B x 8 M.VXnXpXpXpXzXcXnXNXnXNXVXVXVXCXCXVXVXVXVXVXVXVXVXCXVXNXNXNXNXNXNXNXNXVXVXVXCXCXNXcXcXzXkXrX7X|.}.[.H u i s ) ..) ",
"B B k c v m 8 _.VXkXwXqXrXbXlXnXVXnXNXVXNXVXVXVXVXVXVXVXVXVXVXNXNXNXNXNXNXNXNXNXNXNXNXVXVXVXNXNXzXzXkXlX0X1X/.}.{.H u a s / ) ) ",
"K C x N B v v '.VXzXrX1XqXzXcXNXcXNXbXVXNXNXNXVXVXVXVXVXVXVXVXNXNXNXNXNXNXNXNXNXNXNXNXNXVXVXVXNXnXzXlXpX6X;X!.(.{.H j a ) / s s ",
"*.*.B C B v c &XnXpX1X2XqXlXzXnXzXnXnXnXnXNXVXVXVXVXVXNXNXVXNXNXNXNXNXNXNXNXNXNXNXNXNXVXVXVXNXNXnXzXlXuX2XXX/..X[.H y j / s s a ",
"*.*.*.v c k b $XnXqX<X2X1XpXzXnXcXnXnXNXNXVXVXVXVXVXVXNXVXNXNXNXNXNXnXNXNXNXNXNXNXNXNXNXNXVXVXNXnXzXjXrX>X(.^.}.~.H 3 y a / ..s ",
"*.C *.v c k z $XcX6X;X;X>XrXlXzXaXnXaXjXNXVXVXVXVXVXNXNXNXNXNXNXNXNXNXNXNXNXNXNXNXNXVXNXNXVXVXnXnXzXlXqX;X^.(.|.W.H y y a s ) / ",
"C B C c c N z $XrX<X/.!.^.2XaXrXzXzXNXaXnXNXVXVXVXNXnXnXnXNXNXNXnXNXNXNXNXNXNXNXNXNXNXNXNXNXNXnXzXaXrXqXXX/.}.XXW.J y y i i s j ",
"c x *.>.8 N S $XqXqX}.P.P.;X2XpXnXzXNXuXjXNXCXCXVXnXNXNXnXNXnXnXnXNXNXnXnXVXNXNXNXNXNXNXNXNXnXnXzXuXrX6X}./.(.(.T.r 3 y i h a i ",
"B k l N l Z S #X2X+XOXOX~.OX2XuXnXnXnXiXeXNXCXnXaXnXmXnXaXnXnXnXnXnXNXNXnXnXNXVXNXNXNXNXNXVXNXnXjXrXeX1X(./.^.}.T.g y 3 i ..h a ",
"&.k - - k c G +XwX+X>X[.~.;XwXuXqXqXzXNXNX3XwXMXNXNXnXnXnXzXdXzXnXnXnXnXNXNXNXNXNXNXNXNXNXNXNXmXpXwXqX;X/./.|.XXQ 3 y i a 3 y h ",
"-.N - 8 c ] L U.+X{.#XqX{.+XeXzXbXjXNXVXnX! ,XCXdXwXNXnXxXnXzXnXnXzXnXnXzXnXnXnXNXNXNXNXNXNXnXbXrXqX2XOX!.(.;X).J y 3 y 3 2 i i ",
"-.Z k x c v G I.U.U.W.+XuXuX4XOXOX1XpXzX3XT.uXaXT.{.VXVXnXxXnXzXnXnXnXjXeXnXNXzXnXNXNXNXNXNXnXaX2X>X2X|./.[.T.H 3 3 3 2 2 2 y y ",
"&.&.B l l v G R.U Y |.{.,X,X;XOX!.P.oXXX[.iX1X2XwXaXnXZXNXNXxXxXnXNXzXNXNXnXbXnXnXNXNXnXnXNXnXzXOXOX0X[.T.E r t 2 2 3 2 t 3 i f ",
"V V v k c c L R.U U T.#X+X+XOXoXXXU.I.}.:XaXOXU.I.Y.^.4XuXnXnXnXNXNXNXNXNXnXNXnXnXnXmXnXnXnXnXaX/.XX#XR q 2 e t e 2 2 1 1 y d ' ",
"] m &.] B v L I.Y > W @X4XqX2X,XzXrX(.XX^.!.;X^.P.~.Y.Y.P./.;XqXqXzXnXzXNXNXNXnXxXnXzXzXnXNXzX<X/.XXE.% 1 e e e e t t 1 2 f #.x.",
"V b [ 1.-.v L Y.> < P W.eXuXkXpX4X1X2X8X;X(.<X/.U.I.U.!.!.U.OX}.XX1XrXlXzXaXNXNXNXNXVXNXNXNXkX1X!.^.Q % & ; q e e 2 & % 5 A x.c.",
"M V m m l c G I.> < T W.qXjXzXnXNXmXvXnXzXrXpXwX4X+X|.[./.;X1X>X}.XXOX(.!./.|.^.+X<X4X2X8X1X2X2X!.[.E % % ; q q q r A A 6 M x.v.",
"x x 0 k 9 7 z W P P Y.|.8XjXeXjXzXmXmXNXCXCXNXMXCXCXNXNXnXCXVXnX8X8XXX(.}.^.Q.L.P.Q.Y.P.U.U.OX;XU.~.G $ % & ; w q r A h 5 r #.v.",
"9 9 9 0 0 l 9 ^ |.I.}.1XuXpXaXjXkXjXzXNXNXNXCXCXVXVXNXVXZXZXZXZXAXCXmXlXuX,XXX[.~.^.!.~.}.^.XX/.I.T.: $ % % & q e r r g e 6 M O.",
"7 5 7 5 5 9 5 z ~ W.XX2X<X2XuXjXbXnXCXCXCXCXZXAXZXZXAXSXSXSXSXAXZXCXCXVXVXnXzXaXjXaXjXzXzXqX2X;X}.^ # # $ $ % t t q q e r t e y ",
"7 7 & & 5 5 7 = $ : , I I R R Q ^ ~ ~ M.^ ^ ^ ^ ~ ~ _.).'.%X5XiXxXMXVXVXVXnXnXzXzXzXzXzXNXnXkXpXwXI o o # # # $ & w w = q 5 r g ",
"5 5 = = 5 = 5 % # @ @ $ @ o X X X . X X . X .   X X . X # O + : , , R ^ _. X$XiXxXMXNXNXVXbXkX8XQ # o o @ o # $ 1 e q q = ; D p.",
"7 7 5 = & $ # $ @ o @ o 7 $ . . X . . X . . . . . . . X o . . .       .     + z G R Q E. X XT.R O X o o o o @ # 5 i O.g & q A a.",
"9 5 & & $ $ $ = @ @ @ o $ o . X X . . . .   . .       . . . . . .     . .     . o   . . . X X X X . X o o X @ @ 5 0 h #.A r 5 r ",
"5 5 & * $ @ * p @ @ @ @ o @ . . . . . X X . .       . .     . .   .   .             .   . X X . X X o X o @ @ o 9 :.g g e & 6 6 ",
"7 * * @ @ o o @ X o o X X . . . .   . .       .             .     . .                   . . . X X X X X o 5 $ @ * F 6 $ % 1 r e ",
"- * $ o o X X . . . . . X . .     .                             . .           .         . . . . X X X X @ 6 5 o X $ % o % 6 b 9 ",
"* $ @ @ o X o X X . . X X         .     . .   .                   .         .         . . . . X o o X o o @ o X X @ # % b 5 9 5 "
};
