/* XPM */
static char *rcp05230590379925[] = {
/* columns rows colors chars-per-pixel */
"64 64 256 2 ",
"   c #030102",
".  c #0C0204",
"X  c #0D080B",
"o  c #140305",
"O  c #1B0406",
"+  c #1B0509",
"@  c #140D13",
"#  c #1A1518",
"$  c #220506",
"%  c #2D0906",
"&  c #240509",
"*  c #2B060A",
"=  c #2B0A0A",
"-  c #280708",
";  c #340B06",
":  c #3A0C05",
">  c #330C0B",
",  c #3B0C0C",
"<  c #37060A",
"1  c #3C120A",
"2  c #391109",
"3  c #2A0A12",
"4  c #380D12",
"5  c #331112",
"6  c #1D1B25",
"7  c #351825",
"8  c #332531",
"9  c #430B0C",
"0  c #4B0C0C",
"q  c #450A06",
"w  c #590C06",
"e  c #530C0C",
"r  c #5C0D0B",
"t  c #530A07",
"y  c #43140B",
"u  c #4C150B",
"i  c #4C1B0A",
"p  c #471607",
"a  c #521B05",
"s  c #5B1C05",
"d  c #53130C",
"f  c #5D120D",
"g  c #531B0B",
"h  c #581708",
"j  c #480D13",
"k  c #4B1413",
"l  c #531311",
"z  c #591715",
"x  c #530812",
"c  c #630D0B",
"v  c #6A0E0B",
"b  c #610F07",
"n  c #730E04",
"m  c #6B1407",
"M  c #64110D",
"N  c #6D130B",
"B  c #661908",
"V  c #741A06",
"C  c #73130C",
"Z  c #7B160D",
"A  c #741A0B",
"S  c #7C1B0B",
"D  c #791B07",
"F  c #661812",
"G  c #751811",
"H  c #5D250B",
"J  c #592307",
"K  c #4E210E",
"L  c #6A2C05",
"P  c #6B240A",
"I  c #662707",
"U  c #742C05",
"Y  c #782908",
"T  c #733305",
"R  c #7C3306",
"E  c #7B3808",
"W  c #682314",
"Q  c #773614",
"!  c #6C340E",
"~  c #551A2D",
"^  c #6E1C2F",
"/  c #552A36",
"(  c #742224",
")  c #703133",
"_  c #7E4009",
"`  c #62403D",
"'  c #55334C",
"]  c #75304B",
"[  c #753E69",
"{  c #5E455C",
"}  c #7C4247",
"|  c #744654",
" . c #70516A",
".. c #64586D",
"X. c #841D0D",
"o. c #891D0E",
"O. c #9A1A0A",
"+. c #971C0A",
"@. c #851C11",
"#. c #8B2B06",
"$. c #84230B",
"%. c #8C230C",
"&. c #872808",
"*. c #952A0B",
"=. c #8C3A06",
"-. c #863707",
";. c #973706",
":. c #8C2211",
">. c #9C2B12",
",. c #962712",
"<. c #8A3913",
"1. c #A33B05",
"2. c #A73B06",
"3. c #A32E11",
"4. c #A83413",
"5. c #B63A13",
"6. c #BF291C",
"7. c #8C1428",
"8. c #A90928",
"9. c #BD1837",
"0. c #B80E2C",
"q. c #922A30",
"w. c #AE3031",
"e. c #CD031C",
"r. c #CD071B",
"t. c #D3021C",
"y. c #D5061A",
"u. c #C52519",
"i. c #C32618",
"p. c #C90826",
"a. c #D40222",
"s. c #D4042C",
"d. c #D30B2D",
"f. c #D50626",
"g. c #CA122D",
"h. c #D3162B",
"j. c #C90B34",
"k. c #D50432",
"l. c #D90533",
"z. c #D40B32",
"x. c #DA0934",
"c. c #D40C39",
"v. c #C71737",
"b. c #D81936",
"n. c #C5233C",
"m. c #D92837",
"M. c #DB323A",
"N. c #D93436",
"B. c #D62B2C",
"V. c #894307",
"C. c #9C4406",
"Z. c #98470A",
"A. c #974815",
"S. c #975518",
"D. c #8F4912",
"F. c #A34A06",
"G. c #A44C0A",
"H. c #A84907",
"J. c #B44905",
"K. c #AD590B",
"L. c #A95409",
"P. c #B55807",
"I. c #A85714",
"U. c #BB4F13",
"Y. c #B76309",
"T. c #B96714",
"R. c #AE6217",
"E. c #8F552B",
"W. c #AA4F2D",
"Q. c #9B6335",
"!. c #AE6C31",
"~. c #C45B08",
"^. c #CA4715",
"/. c #C6680A",
"(. c #C66A15",
"). c #D17610",
"_. c #C7572B",
"`. c #C8732B",
"'. c #E87E30",
"]. c #993658",
"[. c #8D3354",
"{. c #AD2749",
"}. c #B72748",
"|. c #AA3B5C",
" X c #BA3557",
".X c #B42F50",
"XX c #B33C62",
"oX c #B22752",
"OX c #C31A44",
"+X c #D41A43",
"@X c #C72749",
"#X c #DA2943",
"$X c #C62C53",
"%X c #C63858",
"&X c #D0364E",
"*X c #C23B60",
"=X c #8C495A",
"-X c #B34858",
";X c #97734F",
":X c #A67852",
">X c #88576B",
",X c #8D526B",
"<X c #A84964",
"1X c #B84967",
"2X c #B05675",
"3X c #90676D",
"4X c #B37D6C",
"5X c #B1687A",
"6X c #CC425A",
"7X c #CB7454",
"8X c #C84666",
"9X c #C9516A",
"0X c #C85878",
"qX c #D24D6A",
"wX c #CC627C",
"eX c #378B6A",
"rX c #779978",
"tX c #E38514",
"yX c #D5862F",
"uX c #E38E22",
"iX c #BA8555",
"pX c #B69071",
"aX c #969971",
"sX c #CC9256",
"dX c #CD9B6B",
"fX c #E5AC6A",
"gX c #507489",
"hX c #6C6989",
"jX c #917789",
"kX c #AF728C",
"lX c #9E668A",
"zX c #CE5D81",
"xX c #C96987",
"cX c #C87896",
"vX c #D27A99",
"bX c #CE6E8A",
"nX c #4F9391",
"mX c #728B92",
"MX c #64A6A3",
"NX c #34A097",
"BX c #B49092",
"VX c #B292A4",
"CX c #96909C",
"ZX c #CB8298",
"AX c #D1AE90",
"SX c #C98AA8",
"DX c #CE96B1",
"FX c #CAA9B0",
"GX c #CDB1CD",
"HX c #CEC6D5",
"JX c #C8CBE2",
"KX c #C7D4ED",
"LX c #C5D6F0",
"PX c #F2E8E7",
"IX c #ECDED7",
"UX c #E5C9B5",
/* pixels */
"AXBXaX;X;X:XpXAXUXIXIXPXPXIXPXPXPXIXHXIXUXFXBX4XiX!.!.S.Q.E.E.D.<.E <.Q a Q sXiXdXdXyXfXdXiXdXiX!.A.A.R yXsXAXsXD.L.(.`.`.sXfXfX",
"! ;XpX:XE.Q.iX!.iXsXdXAXAXAXAXAXAX:X:XpXQ.W.W.6.B.w.w.w.w.w.w.w.w.q.w.w.4.W.7X7X7X:XR.`.yXS.<.!.G.-.! =.`.`.sXyXG.G.C.L.A.I.!.`.",
"! V.V.! ! -.-.S.S.S.!.pXpX:X;XQ.S.S.Q.W.4.N.B.r.f.f.f.f.d.d.h.h.h.h.h.h.h.h.h.h.@XFXpXA.I.A.-.-.#.Y Y I.R.C.L.(.Y.L.F.P./.L.G.(.",
"E E R E E -.Z.T.D.Z.!.dXiXI.!.Q.S.Q Q >.i.N.B.r.t.p.d.a.a.a.a.a.a.a.g.g.a.e.e.a.v.FXHX=XQ Y A.Z.G.I.G.P./.F.I.(.~./.).~.~.~.G.=.",
"T E V.Z.G.L.L.Y.R.Z.K.uXuX(.I.S.R.W D +.i.N.B.r.v.qXqXg.a.a.a.a.g.6XqXqXqX%X%Xv.g.DXJX;X=.=.~.J.J.#.;.(.).~.~.P.P.~.~.J.P.J.;.;.",
"V.L.L.L.Y.L.P.K.T.G.L.Y./.Z.R L.Z.w n +.i.N.B.g.wX8X9X&X&X%X%X$X0X9X&Xg.9XbX6Xg.g.SXJXpXT.K.~.1.;.Y &.(.~.J.~.J.2.J.J.2.H.J.#.;.",
"L.Y.Y.L.P.Y.Y.Y.T.K.P.P.P.P./.).G.w n O.i.N.B.9X0X0XxXbX0XcX0XwXzX@Xn.n.0X%Xv.e.p.SXJXdX/.J.J.#.F.;.#.#.#.;.;.;.#.~.J.;.;.#.Y N ",
"L.Y.).).).uXY./.Y.K.K.K.K.Y.).tXG.w n O.i.N.B.bX%XzX9XxXcXvX0XvXzX9X0XxXxXbX6Xe.p.cXJX4XY -.#.#.;.1.;.2.;.;.;.;.#.J.2.;.1.#.#.B ",
"Y./.Y./.uXfXK.K.F.F.G.K.K.K./.tXZ.w n O.i.N.m.wX%Xn.@X0XbX*X8XvX1XvX0XvXcXcX&Xt.e.cXJX4X&.#.#.;.;.2.J.J.J.J.2.#.J.~.P.P.J.#.B w ",
"L.Y.(.tXtXtX/.L.F.Z.Z.L.K.L.P./.Z.w n O.i.N.B.m.#Xh.h.@X&X#X+XqX@X%X@X6X9X8Xg.t.e.xXJX4X1.;.;.2.2.J.J.J.J.2.1.2.J.H.~.P.;.;.#.w ",
"F.(.yX).)./.K.G.G.C.Z.Z.G.L.L.P.Z.w n O.u.N.B.r.t.t.t.t.t.t.a.a.a.a.t.t.t.t.t.t.e.xXJX4X2.1.1.2.J.J.J.1.1.1.2.2.J.#.;.1.#.&.Y b ",
"L.(.(.tXuX/.H.H.K.K.=.=.=.;.L.P.Z.w n O.i.N.m.y.y.y.t.y.y.t.a.t.a.t.t.t.t.t.t.t.e.wXJX4X1.*.#.*.2.1.1.;.;.1.1.*.Y B #.V #.#.m #.",
"Y.Y.Y./.).K.G.L.P.T.-.=.Z.C.H.P.=.w n O.i.N.m.y.t.y.a.t.t.a.a.y.a.t.t.t.t.t.t.t.e.wXJX4X&.Y D #.;.$.#.&.;.;.*.*.Y m V m #.H.&.m ",
"R.T.Y.P.P.C.Z.H.K.).Z.Y =.G.;.L.Z.w n O.u.N.m.r.e.a.t.e.a.e.e.a.a.p.a.t.t.t.e.e.e.xXJX3XV V D D D $.&.%.#.%.#.*.&.S V S Y #.$.m ",
"I.K.K.Y.P.C.F.F.C.K.=.&.;.H.C.C.-.w n O.u.N.m.-X1X1Xg.p. X-X$Xa.v.].|.v.p..X|.}.e.xXJX3XV D Y D D $.$.#.;.;.;.%.$.m m V Z $.A m ",
"-.E V.C.L.F.;.C.C.=.=.;.F.C.G.F.-.w n O.u.N.m.kXBXVXn.v.BXVXcXp.1XmXCX%Xv.kXCXkXp.xXHX<X&.&.$.V m C V $.&.#.$.$.C r m V b V Z C ",
"V.R V.F.L.=.;.C.-.-.;.C.G.Z.Z.;.Y w n O.u.N.B.2X| >Xv.v.,X>X2Xp.<XnXmX.X9.3X .2Xp.cXGX-XS V $.S X.&.#.*.&.*.A m m b w b C m m C ",
"-.R =.=.=.-.=.=.=.=.C.H.F.=.-.C.-.w n O.u.N.B.<X] [.v.v.[.[.XXp.[.gXgX{.v.] ' [.j.cXGXW.*.D A S ;.*.>.m X.>.S C Z m w w m t m S ",
"V.R -.=.-.R -.;.G.H.L.H.;.B P =.-.w n O.u.N.B.0X5XkXv.n.5X5X1Xp.[.gXgX{.9.,X .].j.SXDXq.A M f A A A $.r c m r b b b m D D r Y %.",
"Z.-.-.-.=.=.=.Z.H.P.~.P.=.Y -.Y Y w n O.u.M.B.5XjXjX5XkXVXkXkX1X>XnXnX{.9.[.[ ].9.SXcXw.B e w f m A X.N c c w r r e r V D $.%.%.",
"Z.-.-.-.=.=.=.=.F.~./.P.Y U Y B h w n O.u.M.m.2XjXjXBXFXFXVXVXxXjXMXMX{.9.] ' ].v.DXxXq.f t w w M N c v c r N c r q t M r N Z %.",
"V.-.-.-.-.-.-.C.Z.P.).F.P B P h u w n O.u.M.m.<X^ =Xw..X=X] |.0.| NXnX{.9.] ^ ].9.DX9Xq.e w c M c m C v v v C C c t q w c v Z %.",
"-.V.V.E Y -.Z./.C.C./.R P -.P h 9 w n O.u.M.m.<X .>Xv.n.>X .<Xp.=XnXmX}.9.] ' ].OXDX6Xq.e r $.X.v v Z S n Z Z C m b e c c Z *.*.",
"E V.E T R -.C.P.K.V.=.P R -.Y s 9 w n O.u.M.m.%XlX1Xg.@XkXkX Xa. XlX5Xv.g.<X,X.X}.DX@Xq.M C $.Z Z C X.o.o.Z o.S S N r N S X.>.>.",
"V.Z.V.R U I U -.T.V.I P P Y I u u w n O.u.M.m.g.1X9.a.b.%X2Xv.a.p.XX}.t.t.9.1Xg.$XSXn.q.M m N C N N Z Z %.%.%.X.m v c X.%.%.,.3.",
"T I J a h h U -.=.s u I P -.P t d w n O.i.M.m.p.9.p.a.b.@X@Xz.y.a.9.g.t.t.p.0.a.8XvXv.q.r r v N v C X.:.,.3.3.$.v N Z %.>.>.%.,.",
"p p p : q a I R U q a J U P R R P w n O.i.m.m.y.f.v.v.+X@X@Xg.t.g.j.j.p.g.g.r.t.9XbXg.w.f M N c N C :.>.3.4.3.%.C v o.>.3.o.Z Z ",
"J a I ; q s P U a J V.A.P Y =.G.A.w n O.u.M.m.y.$XVXSX8X2XjXkX9.2X5X0X}.kXkX$Xt.wX0Xh.w.N C C c c C Z :.3.^.5.>.X.Z >.4.>.Z C C ",
"a p p : q s h R I I E I P Y R I.A.w n O.u.M.m.y.-XBXVX2XkXMXCX.XkXjXkX|.CXhXXXp.bX8Xh.w.e M C c r c N :.>.^.^.4.>.*.4.4.%.Z Z C ",
"a a q : : s s I Y s B B U P s Y P w n O.u.m.m.f. X>X3X1XjXnXmX{.=X{ 2X|. .' .Xg.vX%Xg.q.9 e M N r c C o.3.^.^.U.5.4.5.>.o.o.Z v ",
"J a a : q L R R P B B B B B h h P w n O.u.m.m.f.{.>X .XX .eXrX{.<X>X<X].{ ' {.v.ZX[.q.q., 0 e M c r C Z >.5.5.^.^.U.4.%.Z @.C N ",
"J p J ; a C.=.U q q B Y s B h h u w n O.u.m.b.f.}.>X>X|.3XrXaX{.<X2X1X].....{.v.SX/ / ) 9 9 9 e r r c C o.:.>.4.5.^.>.o.@.Z S C ",
"T J L : a -.L a ; : <.D.P h B h u w n O.u.M.b.f. XVXjX|.3XBXpX{.=X] ].].hXhX{.@XVX8 / } 9 9 9 0 e e r N v C @.>.4.5.>.,.Z X.@.@.",
"_ V.T s I T T a ; % U Z.Y &.P h d w n O.u.m.b.p.}.3X .|.3XaXaX{.=X' [.].hX..{.%XVX8 | ] 9 < < 0 0 0 r N r c Z :.,.4.5.>.o.Z :.>.",
"V.V.L I -.T I p 2 : Y =.P P p h d w n O.u.m.b.p.{.{  .|.>XeX...X .' ].].{ { {.9XkX7 ] ) 9 < 9 0 0 f M N r c N C o.o.:.o.:.@.:.3.",
"E I a T -.I s p ; ; s s H E d d s w n O.u.M.b.f. XkXkX X2XjXlX}.lXjX<X.XlXlX}.xXjX7 } ] < q 0 0 F f 0 e M f r c G C Z Z :.@.:.o.",
"L I a J T I s q : y s h h P h d d w n O.u.M.b.s.j.XXXXj.OX1X}.s.oX1Xj.j.XX Xj.vX3X7 } ) < 9 f f f r e 0 e r M G C N N C Z @.,.o.",
"E T J I L U s : p u i h d u u u h w n O.u.M.b.d.s.OXOXk.k.}.j.f.v.oXk.k.OXOXj.SX>X8 =X} 9 0 f M M r M e e e r G C N N G Z @.o.o.",
"_ _ J L T L I J J p ; y q u u y y w n O.u.M.b.d.k.s.s.k.k.s.s.a.s.s.s.s.k.k.v.DX,X/ >X} 9 0 M f f f f M e e r f G C C Z o.o.@.Z ",
"V.V.T E T L I J J y % p u g <.p y w n O.u.M.m.d.k.l.l.k.l.s.a.a.f.s.s.k.l.k.@XGX1X0.v.q.e 9 9 , 0 M N A c 0 e e r c c C Z Z Z C ",
"V.V.V.L I J I p 1 ; y u g p g g g w n O.u.M.m.d.s.l.l.k.k.s.a.a.a.k.k.s.s.k.$XGX%Xs.b.7., , < 9 e 0 e r e 9 9 e e c r c C @.o.Z ",
"V.E V.L L I a i y H =.B y ; ; 2 y w n O.u.M.m.d.s.k.k.k.l.k.f.a.a.s.k.k.k.k.8XGX$Xs.b.7.% < < , 0 9 e r e M e e e M c c C Z o.@.",
"E T E L I T a ; 2 -.U p 2 2 H L g w n O.u.#Xm.z.s.l.k.k.l.l.s.a.a.s.l.l.l.k.0XGX$Xk.b.7.< 0 < : f 0 0 M c M e e r f c v N C Z v ",
"I I V.S.i T H : 1 g p y p g H K u w n O.u.#Xm.z.k.k.k.k.k.l.k.f.a.f.l.l.l.k.xXGX$Xk.b.7.* < < , u 9 , M c r 0 r r e r M N G N N ",
"T J J ! J E I : y H ; 1 i H 1 % , w n O.u.#Xm.z.k.k.k.l.l.k.k.s.a.f.l.l.l.c.cXGX$Xk.b.7.& < < 0 l , 9 e r e e r e M M r N $.C G ",
"V.J : : H I i ; : 1 2 ; i ! i = > w n O.u.#X#Xz.k.k.k.l.l.l.l.s.a.s.l.l.l.j.DXGX$Xl.b.7.* < < < 0 9 9 , 0 0 l G e M c c C F M G ",
"Z.! 1 i I V.H p 2 2 y = 1 1 y 1 , w n O.u.#X#Xz.s.l.k.j.0.8.8.8.8.8.8.8.8.v.FXGX$Xl.b.( * * * > 9 < , 9 0 0 0 F M M r M r e N N ",
"Z.E J I H L I J 2 i i ; 1 2 > > , w n O.u.#X#Xz.s.l.l.7.< * 3 3 3 3 3 3 x }.GXGX$Xs.b.( & & & > 9 , , 4 9 z 0 l f r f l 0 e M M ",
"Z.V.T J J ! H i i ! Q y 1 2 = 5 1 w n O.u.#Xm.z.s.l.l.7.+ @ @ @ @ @ @ @ x .XGXHX$Xs.b.( + O & * , , > < , 0 0 0 l e f 0 0 w N A ",
"R R L J I L E J 2 i H K ! i g y 1 w n O.u.M.#Xz.k.l.l.7.# @ X X . . X . x  XJXJX%Xs.b.( O O + & > > < , j l l 0 l l l 9 9 M Z *.",
"-.U V.-.U L L H H H i i _ i i = , w n O.u.M.m.z.k.l.z.7.o . X X X X X X j 1XJXJX%Xs.m.( o o & & & > > < 9 l l l l l l 9 0 A 4._.",
"Y P =.G.Z.I I J J p ; i K 1 - & ; w n O.u.M.m.z.k.l.l.7.6 6 8 8 8 8 6 6 7 2XKXJX8Xs.m.( o + & & & & * > 4 , k l l l , > y W _.`.",
"&.-.R U H I J i 2 1 y 1 y ; - & = w n O.u.M.m.d.k.l.k.7.~ ~ ~ ~ ~ ~ ~ ^ ^ kXKXJX8Xs.m.( o + O & & & < , < , k k k f F W u Y _.'.",
"I I B I s u p i 1 i i ; - & & - > w n O.u.M.m.d.k.k.k.c.OX@X@Xv.v.c.c.c.v.cXKXKX0Xs.m.( O O O O + * * < = > 4 4 k z F G y h 4.uX",
"g g a s g H i i 1 > = : - O & = > w n O.u.m.m.d.k.l.x.x.x.x.l.l.l.x.x.l.z.cXKXKXxXd.m.( o o o o O & & * % < 5 k l z l F l u Y >.",
"i u u 1 1 g p 1 > = ; y ; O & - ; w n O.u.m.m.h.k.l.l.x.x.x.x.x.l.x.l.l.c.SXKXKXcXj.m.( , o O O o $ & & * * < j k k l l z y l F ",
"g u : , y y u 1 = = & & = $ O O = w n O.i.N.m.h.k.l.l.x.x.x.x.x.l.l.l.l.c.DXLXKXcXg.m.( = . O O o O $ O $ & & > , y j 4 k y z F ",
"y 1 2 : p 2 y ; & = & % $ O o o = w n O.i.N.m.g.k.l.x.x.x.x.x.x.l.l.l.l.v.DXLXLXSXj.m.W . . o O o O + O O + & * 9 l k k 1 1 Q W.",
"i i i 1 : % $ * & O $ O u % o . = w n O.6.N.m.g.k.l.l.l.x.x.x.x.l.l.l.l.v.FXLXLXFXv.h.z . . . o o o O O O O O & 9 N >.z , k W W.",
"g p , : % - % 1 $ $ $ O ; $ o . - w n O.6.M.M.g.d.z.z.z.x.x.x.x.x.x.x.x.@XGXLXLXGX@Xv.k . . o o o . o O o o $ $ y h A 4.W z y f ",
"u y : ; % $ : P & $ $ - O $ . . o : m O._.6XM.v.h.b.b.b.b.b.b.b.b.b.b.b.$XGXJXJXGX%Xq.+   o O o o O O . o $ & O h A.W F u , u u ",
"p ; ; $ $ O O $ o O O O o . . . . . = A 7XZX@Xn.v.v.v.v.v.v.v.9.9.9.9.9.{.BXVXVXCX) 3   . . . o o o o o O 9 % $ : P k * < 9 z d ",
": ; % $ O o o . . . . . o .       .   + ` 3X/ z l k j j j 4 4 5 5 3 3 3 3 # # # @       . . . . o o o o $ d y O O % > O % 0 W g ",
"; % $ $ O o O o o . . o o         .     . .                       .                   . . . . o O O o O O $ O o o - = 2 P , g 9 "
};
