/* XPM */
static char *rcp05223371594763[] = {
/* columns rows colors chars-per-pixel */
"64 64 256 2 ",
"   c #050103",
".  c #0C0204",
"X  c #0D090A",
"o  c #140305",
"O  c #1C0406",
"+  c #1B0709",
"@  c #1A1617",
"#  c #120F10",
"$  c #230507",
"%  c #240509",
"&  c #2B0609",
"*  c #240A09",
"=  c #2B0B0A",
"-  c #2A0806",
";  c #340B06",
":  c #3B0D05",
">  c #320609",
",  c #3B0609",
"<  c #330C0B",
"1  c #3B0C0B",
"2  c #29120C",
"3  c #34120B",
"4  c #3C120B",
"5  c #3C1308",
"6  c #261713",
"7  c #3A1811",
"8  c #3D0F10",
"9  c #343630",
"0  c #440B0B",
"q  c #4C0C0C",
"w  c #450A07",
"e  c #530C0C",
"r  c #5B0D0B",
"t  c #580C07",
"y  c #451305",
"u  c #4B1406",
"i  c #4D1906",
"p  c #44130B",
"a  c #4C140B",
"s  c #43190B",
"d  c #4B1A0B",
"f  c #541506",
"g  c #531B06",
"h  c #5C1C05",
"j  c #53140B",
"k  c #5C130B",
"l  c #531B0B",
"z  c #5C1C0A",
"x  c #5B1406",
"c  c #4B0E10",
"v  c #4B1411",
"b  c #441511",
"n  c #531311",
"m  c #591912",
"M  c #640E0B",
"N  c #6B0E0B",
"B  c #630F07",
"V  c #641C06",
"C  c #6B1C06",
"Z  c #63130C",
"A  c #6C140C",
"S  c #641C0A",
"D  c #6C1B0B",
"F  c #671407",
"G  c #741C07",
"H  c #7B1E07",
"J  c #73140C",
"K  c #7B160E",
"L  c #741B0A",
"P  c #7C1B0C",
"I  c #701707",
"U  c #681912",
"Y  c #761A11",
"T  c #720F0C",
"R  c #5C2305",
"E  c #5B230B",
"W  c #56220A",
"Q  c #4B251B",
"!  c #592615",
"~  c #532A16",
"^  c #642406",
"/  c #6C2406",
"(  c #652A05",
")  c #6B2C05",
"_  c #64220B",
"`  c #6B2409",
"'  c #682B0B",
"]  c #752206",
"[  c #7A2406",
"{  c #742C06",
"}  c #7C2C05",
"|  c #73230A",
" . c #7B230A",
".. c #772B0A",
"X. c #6C3108",
"o. c #743305",
"O. c #7C3306",
"+. c #7C3B05",
"@. c #7C330A",
"#. c #77350A",
"$. c #672615",
"%. c #752815",
"&. c #6A351B",
"*. c #773617",
"=. c #542821",
"-. c #542E26",
";. c #66382B",
":. c #7A3824",
">. c #6D3029",
",. c #7E4011",
"<. c #734632",
"1. c #54544C",
"2. c #795854",
"3. c #766D61",
"4. c #696454",
"5. c #831C0E",
"6. c #871D0E",
"7. c #841C10",
"8. c #8A1D11",
"9. c #801510",
"0. c #941C14",
"q. c #832506",
"w. c #842C06",
"e. c #8B2C05",
"r. c #84240A",
"t. c #8B230C",
"y. c #832D0A",
"u. c #8C2B0A",
"i. c #882607",
"p. c #952A0C",
"a. c #843405",
"s. c #8B3305",
"d. c #843B05",
"f. c #8C3B06",
"g. c #85330B",
"h. c #8B3508",
"j. c #8C3B0A",
"k. c #843C0B",
"l. c #933305",
"z. c #9A3405",
"x. c #943B06",
"c. c #9B3B06",
"v. c #97370A",
"b. c #8C2211",
"n. c #842715",
"m. c #932312",
"M. c #9C2B12",
"N. c #992A17",
"B. c #863816",
"V. c #97351A",
"C. c #A33C05",
"Z. c #A63B06",
"A. c #A52C15",
"S. c #A83513",
"D. c #B53A13",
"F. c #B62A17",
"G. c #9A3C26",
"H. c #8E3A31",
"J. c #BF2F29",
"K. c #C92F30",
"L. c #8B420A",
"P. c #874406",
"I. c #9C4306",
"U. c #9B4409",
"Y. c #9C4A0A",
"T. c #954609",
"R. c #834217",
"E. c #974712",
"W. c #975417",
"Q. c #945114",
"!. c #A54406",
"~. c #A24B06",
"^. c #AA4D06",
"/. c #A44C0B",
"(. c #AB4D0B",
"). c #A54309",
"_. c #B54905",
"`. c #AC540A",
"'. c #AD590B",
"]. c #A75408",
"[. c #B25B0B",
"{. c #B65707",
"}. c #A85815",
"|. c #B65E13",
" X c #B04216",
".X c #B86309",
"XX c #B96716",
"oX c #AF621A",
"OX c #88472D",
"+X c #985638",
"@X c #8E502F",
"#X c #A74C32",
"$X c #A75638",
"%X c #AB552B",
"&X c #9D6434",
"*X c #B26E30",
"=X c #C45B08",
"-X c #C94715",
";X c #CC4D11",
":X c #C76609",
">X c #D36C09",
",X c #D8770B",
"<X c #C66814",
"1X c #CB7519",
"2X c #D97C12",
"3X c #CF6F10",
"4X c #E87511",
"5X c #C75923",
"6X c #C97625",
"7X c #CA722D",
"8X c #E67D30",
"9X c #9A5A45",
"0X c #86544C",
"qX c #AA5944",
"wX c #8B6359",
"eX c #966759",
"rX c #9B6F51",
"tX c #AA664B",
"yX c #A5795A",
"uX c #AF7453",
"iX c #91736A",
"pX c #B37B69",
"aX c #AA786A",
"sX c #CC5454",
"dX c #D36763",
"fX c #DB8116",
"gX c #E7850F",
"hX c #D28930",
"jX c #EA982D",
"kX c #BB8955",
"lX c #B28872",
"zX c #958270",
"xX c #D8934D",
"cX c #CB9A67",
"vX c #D2A672",
"bX c #E5A558",
"nX c #91918E",
"mX c #BA9688",
"MX c #AA9591",
"NX c #B2A19D",
"BX c #ADA8A7",
"VX c #C0998A",
"CX c #CDAC94",
"ZX c #CCB7AA",
"AX c #C9B1A7",
"SX c #D2C5B3",
"DX c #E4C9B4",
"FX c #CBCACA",
"GX c #D8D7D7",
"HX c #D5CDC8",
"JX c #E7DCD7",
"KX c #E8E8E8",
"LX c #F3F3F3",
"PX c #FAFAFA",
"IX c #F2E8E7",
"UX c #F0E3DE",
/* pixels */
"AXmXzXiXyXuXlXCXDXJXUXUXIXUXIXIXIXJXHXJXHXZXmXyXuX&X}.W.&X@X@XR.@.@.B...f *.kXkXcXvXhXvXcXuXcXkX*XL.E.@.hXcXCXxXE.].XX6X7XxXvXbX",
"&.rXlXyX@X&XuX*XuXkXvXCXCXVXCXCXCXyXyXlX+X+X+XR.( ~ &.,.W E *._ ' z _ j.T.].xXbX*X%X}.7X7XQ.R.*X/.g./ j.6X7XxX6X/./.U.(.Y.}.*X7X",
"' R.P.*.*.d.d.Q.W.W.*XlXlXyXrX&XW.W.&XW.k.R.,.&X<.*.OX,.z $.:.OX@X%.%.(.|.|.1XW...g.j.j./.E.g.g.g.....}.|.U.(.1X|.`.!.{.=X(./.<X",
"+.+.+.+.+.P.T.XXQ.T.*XcXkX}.*X&XQ.O.O.E.Q.k.k.*XoXf.E.*.n.K.sXdXsXK.J.A.U.XXE.v.r.@.E.@.....E.v.(.`./.{.:X^.}.6X:X>X>X=X:X=X).f.",
"o.+.P.Y.Y.].'..XXXY.'.hXjX1X}.W.oXa.a.` R.*.k.}.<X} f h #XsXsXdXsXsXqXH.B.y.V [  .U.E.j.f.v.=X{._.s.c.<X,X:X=X{.{.=X=X_.{._.c.c.",
"P.].].]..X].[.[..X].`..X:X/.O.].:X].O.{ *X}.k.` @.h f V +XBXFXGXJXJXHXMX@X[ C | C C v.{.XX[.=XC.v.[ y.<X=X_.=X_.Z._._.).)._.e.h.",
"~..X.X].[..X.X.X.X'.[.[.[.[.:X,X3X^.I.{.>X].@.V f V / x eXGXKXPXPXPXLXFXyXh.[ ] G G [ (.<X{._.l.).C.e.s.l.l.c.z.w._._.c.c.e.[ F ",
"'..X,X3X2XjX[.:X.X].'.'.'.[.,XgX3X{.[.`.:XE.a.} [ } w.] lXGXKXLXPXPXLXGXmXu.C.e.q.q.q.s.[ y.h.e.c.c.l.Z.c.z.z.z.l._.Z.z.C.e.w.C ",
".X:X.X:XjXbX[.`.~.~.].'.'.[.3X2X3X3X:X{.fX6X} } s.s.x.s.rXGXKXLXPXPXLXHXeXC ).l.z.z.l.l.e.e.e.z.z.C._._._._.C.l._.=X{.{._.e.F t ",
"'..X1XfXgXgX.X].~.T.T.'.[.`.`.:X>X1X:X:X:XY.{ s.l.s.l.e.+XGXKXLXPXPXLXZX$X]  .e.c.C.z.z.C.z.z.Z.Z._._._._.!.C.Z._.).=X{.c.z.e.t ",
"Y.<XfX2X2X:X'.Y.~.Y.Y.Y.~.`.^.{.3X,X:X=X^.c.s.s.c.x.l.w.9XGXKXLXPXPXPXFX+XH G  .i.z.z.C.Z.C.Z.Z._._._.C.C.Z.Z.)._.l.z.C.e.q.q.k ",
"].1X<XfXfX:X^.^.`.[.j.j.j.I.`.^.:X,X>X{.^.I.x.x.z.z.s.e.tXGXKXKXLXLXLXFX0Xe.G e.i.e.z.z.C.l.e.u.Z.C.C.z.c.C.C.u.G C e.G e.e.F e.",
".XXX.X:X1X'./.`.[.XXk.j.T.U.^.{.6XxX3X:X(.x.s.l.s.x.x.e.yXFXKXKXKXKXKXFXtXl.B G i.u.i.q.i.H H e.l.q.e.i.c.v.u.i.[ C L F u.).r.I ",
"oX.X.X{.{.I.U.`.`.1XY.} f.~.I.^.1XhX,X:XU.s.e.s.s.s.x.s.lXFXKXKXKXKXKXGXeXF t F r.i.H G G G H [ P r.r.i.u.i.u.z.i.P I P  .u.q.F ",
"}.].|..X{.I./.~.I.`.j.a.x.!.I.I.{.2XgX{.h.h.e.h.q.w.c.y.lXZXHXSXSXSXSXSXaXJ F F L  .I H G H q.P H r.r.u.z.z.z.t.r.A A L P r.L A ",
"+.+.L.~.^.I.c.I.I.s.f.x.~.I.Y.I.!.>XgX{.x.h.w.e.w.[ (.g.@XuXvXbXhXhXhXhX+Xg.I B t t C i.i.i.q.L I I L q.r.p.r.r.L B A G B G P I ",
"P.O.f.~.`.x.x.I.s.h.x.I.(.U.U.x.!.=X2X}./ ] [ } [ y.)._ _ <XbXjX4X4X4X<X.. .G t t H i.u.P L r.P 5.i.p.p.i.p.L I A Z t Z I F I I ",
"P.+.f.f.f.a.s.f.f.x.I.^.!.j.a.c.!.=X2X1Xf.F s.a.C ]  .l S |.xX8X4X>X-XS.m j q.e.C.Z.Z.z.u.P L r.z.u.p.A P M.P I P A t x A q F H ",
"P.O.d.f.a.} w.x.~.^.^.^.x.C C s.!.{.{./.h. .w.[ C ] S 4 j  X5X5X;X;XS.B.W s _.;X_._.z.r.G Z k G G G t.r M A r Z F F A H H x [ i.",
"T.d.a.s.f.f.f.T.^.{.:X[.f.{ a.[ c.!.s.s.U.h.C y.y.] l 3 d S.#XG.A.D.b.B.$.3 g.z.i.r.r.L S e k k A L P A B M r r t e r G H r.i.p.",
"T.d.d.a.f.x.s.s.!.=X>X{.{ / ..V V | U.~.3X).c.=X=X=X' < ! N.#Xn.b.A.7.%._ 3 d  .A G u.P r e r r F A B N M r J M r w q B r A P t.",
"T.d.d.d.d.a.a.I.T.`.>X^.{ V ^ f u u k.(.[.y.x.I.~.{.d < %.N.$X%.m.F.7.$.E 4 2 D L G L r t t B F M M A N N N J J B e w t B N K m.",
"d.P.P.+.{ a.Y.<XT.I.:XO./ @.` f w f _ { h.h.y.y.x p 3 s V.G.$XY m.F.0.%.$.d * a L k e t t Z r.P M M J P J P P J J B t B B K p.p.",
"+.P.+.o.+.a.T.`.'.j.j.` ..@...g y z V u z ` C | Z 7 4 E V.#X#XP 8.A.K U &.E 4 4 q w t e Z J r.K K J 5.r.6.K t.P P A r A P 6.M.p.",
"T.P.L.+.{ V { f.XXL.V ` ) ..^ u u x V V ` `  .L D 7 p %.n.G.#X0.8.N.0.Z *.$.a 4 q k q w Z Z A J A A K P b.t.t.5.A N M 5.t.m.p.S.",
"o.) R g g g } f.f.R u z / a.` f x V g... .e. .G S < a $.B.OXV.0.7.A.A.A $.*.m 4 j r e r r M A A N J 6.b.p.A.A.t.N A P t.M.p.6.m.",
"u u y ; w f / a.{ w g z / / } y.} j.j.S B G q.G ` 4 Y %.qXtXOXU n.N.N.U %.#X%.p | J k r Z A Z M N J b.m.A.S.S.t.J N 6.M.A.6.K K ",
"g g ^ ; w h ^ { f W L.W./ { f./.|./.| F C L | G ..p n.H.mXVXlXiXaX9XH.0X0XtX*.b m L k A J K J M B J P b.A.-XD.M.r.P M.S.M.P J J ",
"i y u : y g f O.^ _ +._ | ..a.}.|.|._ q S Z.l. .| a b.n.uXpX9X$.%.n.Y U $.#X*.4 a q q t t Z K M r M A b.M.-X;XS.M.p.S.S.t.P K T ",
"g i y : : g h / } h V V ../ h } { g y x C y.G L | j G.yXuXuX+Xk Z J Y 0XwXpX+X-.a q q q 0 r Z A M M A 6.A.;X;X XD.S.D.M.6.b.K N ",
"R g g : : / O.O./ V V V V V f f @.V z k k k k Z z $.pXaXpXpX9X>.$.:.aXiX0XuXmX2.0 Z Z q , q t Z Z M J P M.D.D.-X-X XS.t.K 8.J J ",
"R y R ; i I.f.{ y w / [ V V f g h V y.u.| D Z A k 2.aXlXCXAXmXMX0XmXeX<.>.+XlX=.< 0 , , 0 0 0 t r r M J 6.m.M.S. X-XM.t.7.5.P J ",
"X.R X.: g O.) g ; : k.E./ x V f z z k E.v.D P P a wXlXmXZXAXAXiXwXMX0X;.0XpXlX<.< > > , 0 0 0 q t e r A N J 7.M.S.D.M.m.P 5.7.5.",
",.P.o.h ) o.{ g ; - ..U.{ g.` z j 0 j V x Z v. .! wXpXaXAXSXZX2.MXMXiXiXiXVXmX2.= > > 0 0 , > 0 0 q r A r r K b.M.S.D.M.8.9.m.M.",
"P.P.( ( +.o.^ y 5 : @.j.` / u x j u z Z k G  .V ~ wXH.9XCXZXiX=.NX2.2.MXwXAXAX2.= > & , w , 0 q q k Z A r M N J 6.8.m.b.b.7.b.M.",
"+.( g o.d.( h y ; : h h E @.f j ` g ` | t ....j 8 0XH.9XVXAXiXQ 0X0X;.wX;.aXlX;.2 % > , , w q q D Z q t Z r r M K K K K b.8.8.6.",
"( R i R o.^ h : : y z f f / z j S k Z V q k x q 1 k P G.pXlX<.1 0 0 : 1 p $.*.3 + > < , , w Z Z k r q q e r Z J A Z N A K 7.m.8.",
"o.o.R ( ) { h : i i d f f u a u x q x f j j j a < k U *.@XeX-.< < < 4 7 b ! ~ 2 + & , e 0 q k A Z r r e q r r J J A N J K 5.8.b.",
",.+.^ X.o.) ) g g i ; y y a u : : < < q j a u _ s k j ! -.eX=.j p 1 Z k s ! ! 3 + 1 , & 0 q Z r k k k Z r e r r Y J N J 7.7.P K ",
"P.P.o.+.o.) ^ h W p - p y d k.y 5 1 < 0 0 : j a = a a ! -.wX=.k p 1 Z k b ! ! 3 * < 0 > q 0 0 , q Z U Y Z e e e r M M J K K K J ",
"P.P.P.) ( R ^ i 5 ; 5 a d p l d l 5 p 0 0 u u j = < 5 ! Q wX>.A j 0 Z k v $.! = * > > & 1 , , 0 e e e r e 0 0 e e M r M J 7.m.K ",
"P.+.P.) ( ^ g i y E h.V p < < < < 5 p p p p u l 4 4 u $.Q wX:.K A a Z Z ! $.! * * & > > > , > , q 0 e r e Z e e r Z M M J K 8.9.",
"+.o.+.( ( X.g ; 5 k.#.d 5 5 E ' l l W 1 < < 0 : = : y $.$.eX<.P J j J J $.$.$.* * & > & 1 0 > 1 k 0 q Z M U e e r r M M A A K N ",
"( ^ P.W.i X.R : p l s s p d E W d p 1 < y l u : = 5 a $.%.rXOXL Z a K 9.%.%.$.* % $ > > & , < 1 q 0 0 Z M r q r r r r M A Y J A ",
"o.R W ' W #.E : p E = 5 d E 5 < = 1 5 p l y 0 < < 3 j | n.tX+XL Z a K 8.B.B.$.* % % & > & 1 < q j 1 0 e r n e r e Z Z r A n.J J ",
"L.R 5 5 R ( d ; 1 5 3 < d ' l = * 5 5 < < < 1 1 < * p %.N.tX+X .A j K 8.G.V.| * % % & & & > > > q 0 0 1 c c n U r k M Z J Z Z J ",
"Y.X.5 i ( P.E i < 3 s = 5 5 p 5 = 5 < < * = = 1 = * a n.M.tXqXb.A j K 0.#XV.` * % % $ % & & & > 0 < 1 0 q n q Z Z Z r Z r e A Z ",
"Y.#.R ^ ( ) ( W 5 s d < 3 3 3 3 = < < < = % & & & * a %.M.$XqXm.Y k 9.N.#XV.` * O O O O % % % & 0 0 1 1 0 k c n n r k r q e Z Z ",
"T.P.#.W W X.W i d ' *.s 4 3 3 3 = = < = < % $ $ % = p _ V.#XqXb.A k P V.$XV.| * o O o O % O % & 1 1 < < 0 c n c n r k q q r A L ",
"O.O.) R ( ( #.W 3 s W d &.d l s < < % % < & - $ % * p $.S.#X9Xn.A k K N.$XV.` * o + o o O O O % < < < 8 c n n c n n n 0 0 Z K p.",
"a.{ L.d.o.X.X._ E E d d ,.l d = < 1 = < = % = & % = l %. XqXtXn.K Z J n.$XB.%.* o . o o o o % % % < < 1 0 n n n n c q 0 e L S.5X",
"O./ f./.Y.X.' W W d 3 s W 5 = * * = $ $ O $ % O % 3 l :. XqXtXn.P K A Y $XV.B.= o O o o o O % % % & & < 1 8 v n n e 1 < p _ 5X7X",
"} O.} { E ' E d 5 4 s 5 s < * * O = $ $ O O O o + = 4 :.G.+XuXn.P m.D m +X:.*.3 + O O o o + O % % & > 1 < 8 v v v m $.$.a ..5X8X",
"^ ^ h E g u d l p s p < * % % = * $ O O $ O O $ + 2 4 :.%.9XuXn.L m.S b @X;.~ 3 2 o o o o O O O O & & > < 1 8 b v m $.Y p z S.8X",
"l l l z z E l d 5 3 < < * % % = % $ $ o $ o o o = 3 p &.v 9XtX .z | a 3 <.<.&.7 2 . . o o o o o O % % & < < 1 v n m m U n a  .V.",
"d p u p p l p 5 < = < p < $ $ = $ $ o $ o . . . = 8 s Q Q 0X@Xk p a 3 = Q <.&.m * . o 1 0 o O O o % % % & & < c b v v v m p j Z ",
"d u 1 1 p p d p = = % $ * $ O O O O O - o o . o 2 7 < Q ;.0X;.4 4 4 = = < ~ *.U 3 . o * = . O O o O % O % % % = 1 b b 4 v b m U ",
"p 5 5 5 y 5 p < % = % = $ O o o o o o o o o . . 2 3 $ 3 ;.<.=.< < = * = = p _ z 3 o . o o . o o o $ O O % O % & 0 n v v 8 1 *.%X",
"u u p 5 : = $ - $ O $ O u - . . o . . o . . . o 2 2 + 2 Q -.7 = 4 5 5 3 = = 2 = * . . . . . . o o o o O O O % % 0 A V.U 1 v $.%X",
"l y : 1 - - - 5 $ $ $ o - O . o o . . . .   . . 6 6 2 * 3 7 3 < u f u p s s 7 7 6   . . . . o o o . o o O o $ $ p f L S.$.m p m ",
"p y 1 ; - $ ; V $ $ $ $ o $ . . . . . o o . . . 9 1.1.4.3.iX3.3.iXiXiX3.zXMXNXMX9   .   . o o . o o o o o $ $ O g E._ S n 1 a a ",
"d ; ; $ $ O O $ o o O o o . . . .     .       . # 9 1.4.nXnXnXnXBXMXnXnXMXBXnX1.#       . . . o o o o o O 0 = $ ; %.a & < 0 k j ",
": ; - O O o o o . . . . o . .     .                 . X # @ @ @ 6 @ @ @ @ # .           . . . . o o o o $ j p O o & < O < u $.l ",
"; - $ $ O o o o o . . o o         .     . .   .                   .                   . . . . o O O o o o $ O o o $ * < $.p l y "
};
