/* XPM */
static char *aeac071824a54f30d2c75b3fcbddcf3dH2Sug35TDW4tGYOE[] = {
/* columns rows colors chars-per-pixel */
"64 64 249 2 ",
"   c #562A0C",
".  c #5B2C0D",
"X  c #592608",
"o  c #562D13",
"O  c #5A2B13",
"+  c #5C2D1B",
"@  c #552A18",
"#  c #5D3113",
"$  c #5B331A",
"%  c #553016",
"&  c #5E300F",
"*  c #6C2C07",
"=  c #642C0C",
"-  c #6C2C0D",
";  c #662609",
":  c #732E0B",
">  c #732B04",
",  c #6C320D",
"<  c #63310D",
"1  c #73330C",
"2  c #7C340D",
"3  c #783308",
"4  c #632D14",
"5  c #6B2E13",
"6  c #642D19",
"7  c #6A2E1A",
"8  c #742D15",
"9  c #643214",
"0  c #6B3315",
"q  c #65331B",
"w  c #6B341A",
"e  c #65391C",
"r  c #6D3A1C",
"t  c #693916",
"y  c #733413",
"u  c #7B3613",
"i  c #743914",
"p  c #7B3B14",
"a  c #74351B",
"s  c #743B1C",
"d  c #7B3C1C",
"f  c #7C351A",
"g  c #5A3324",
"h  c #643A23",
"j  c #6D3B23",
"k  c #683724",
"l  c #723623",
"z  c #7D3621",
"x  c #743C23",
"c  c #7B3C22",
"v  c #7A3D2A",
"b  c #743D2B",
"n  c #712F21",
"m  c #6E421F",
"M  c #7B411D",
"N  c #76421F",
"B  c #744223",
"V  c #7C4223",
"C  c #7A442A",
"Z  c #794731",
"A  c #6F4120",
"S  c #83390C",
"D  c #83350A",
"F  c #913B0D",
"G  c #843C14",
"H  c #843C1B",
"J  c #8A3D1A",
"K  c #863916",
"L  c #923C18",
"P  c #833D23",
"I  c #863C27",
"U  c #834214",
"Y  c #8B4315",
"T  c #84421C",
"R  c #8C441D",
"E  c #8C491E",
"W  c #89491A",
"Q  c #93441B",
"!  c #974819",
"~  c #9E521F",
"^  c #A44E1D",
"/  c #A6531E",
"(  c #844322",
")  c #8B4423",
"_  c #8C4924",
"`  c #84422B",
"'  c #8B4429",
"]  c #84492B",
"[  c #8B4A2B",
"{  c #854A24",
"}  c #944A24",
"|  c #9C4D23",
" . c #944D2B",
".. c #9A4D2B",
"X. c #944624",
"o. c #8D5229",
"O. c #9B5226",
"+. c #9D532B",
"@. c #98542B",
"#. c #864730",
"$. c #9C5431",
"%. c #965331",
"&. c #974E36",
"*. c #A14E22",
"=. c #A84F27",
"-. c #A35224",
";. c #AB5425",
":. c #A3532B",
">. c #AB552C",
",. c #A55A2C",
"<. c #AC5A2C",
"1. c #A45926",
"2. c #B35B2C",
"3. c #B65A2A",
"4. c #A35533",
"5. c #A55B33",
"6. c #AB5B33",
"7. c #A85837",
"8. c #B35D32",
"9. c #B85E34",
"0. c #A64F33",
"q. c #BB622E",
"w. c #AA6237",
"e. c #B46235",
"r. c #BC6334",
"t. c #B4633A",
"y. c #BB643A",
"u. c #B6683E",
"i. c #BD6A3C",
"p. c #BF6A33",
"a. c #BA713E",
"s. c #D5672C",
"d. c #C26434",
"f. c #CC6C36",
"g. c #C2653B",
"h. c #C36B3B",
"j. c #CA6C3B",
"k. c #C46935",
"l. c #D46D35",
"z. c #DC6C34",
"x. c #D56C3C",
"c. c #DC6D3B",
"v. c #D2673B",
"b. c #C4723E",
"n. c #CB733D",
"m. c #CE7738",
"M. c #D2723C",
"N. c #DC723B",
"B. c #D9783A",
"V. c #C9692E",
"C. c #E16E34",
"Z. c #E76F3A",
"A. c #E3743C",
"S. c #E47B3D",
"D. c #EB7B3C",
"F. c #E67538",
"G. c #F27D3B",
"H. c #AA5F40",
"J. c #BD6C43",
"K. c #BA6946",
"L. c #BD7447",
"P. c #C36D42",
"I. c #CA6E43",
"U. c #C96F48",
"Y. c #D56E42",
"T. c #C57343",
"R. c #CB7443",
"E. c #CC7944",
"W. c #C3734B",
"Q. c #C67B4C",
"!. c #CB794C",
"~. c #C87548",
"^. c #D37344",
"/. c #DC7343",
"(. c #D37944",
"). c #DD7B44",
"_. c #D47C4B",
"`. c #DD7B4B",
"'. c #D87449",
"]. c #C97753",
"[. c #D87B51",
"{. c #E27344",
"}. c #E47B43",
"|. c #EA7C44",
" X c #E57449",
".X c #E37C4C",
"XX c #EB7E4C",
"oX c #E87543",
"OX c #F27E43",
"+X c #F67E4B",
"@X c #E17B53",
"#X c #E26F40",
"$X c #EC833C",
"%X c #E8843E",
"&X c #F5843D",
"*X c #F9863E",
"=X c #DC844A",
"-X c #CD8153",
";X c #DD8652",
":X c #DB8957",
">X c #E58244",
",X c #EC8444",
"<X c #E78845",
"1X c #ED8A45",
"2X c #E4834B",
"3X c #EC854B",
"4X c #ED8A4C",
"5X c #E68B4D",
"6X c #F48545",
"7X c #FA8543",
"8X c #F48A45",
"9X c #FB8A45",
"0X c #F2864A",
"qX c #FB864C",
"wX c #F38A4B",
"eX c #FB8C4C",
"rX c #EC914C",
"tX c #F3914C",
"yX c #FD914C",
"uX c #FC9046",
"iX c #E68452",
"pX c #EC8551",
"aX c #E58A53",
"sX c #EC8A52",
"dX c #E58D5A",
"fX c #EC8C59",
"gX c #F48552",
"hX c #F88652",
"jX c #F38B52",
"kX c #FC8C53",
"lX c #F38C5A",
"zX c #F08559",
"xX c #EC9354",
"cX c #EC925B",
"vX c #E69257",
"bX c #F49154",
"nX c #FC9354",
"mX c #FE9B55",
"MX c #F39359",
"NX c #FD955A",
"BX c #FF9A5C",
"VX c #F2985A",
"CX c #FFA15D",
"ZX c #FFA055",
"AX c #ED9E6E",
"SX c #FE9C62",
"DX c #F59462",
"FX c #E38F60",
"GX c #FFA463",
/* pixels */
"( -.tX$XwXzXjX4X4X8X&X9X6XeX$X9XN.z.A.2.- ` Q 3XwX1XwX,XqX6XwX1XpXjX<X8XjX2X}.2X!.u x H j.9X9X&X9X6XnX3XeX9X9XqX8X0X6Xz. X[.) t ",
"c O.4X$X0X3X3X,X2X2X>XjX3XfX2X2X^.v.^.7.q Z ( _.jXwXwX3X0X|.0X3X3XwX$X,X3X|.}.0Xb.: a H i.).}.=XD.S.>X}.,XD.S.S.,XS.S.s.l.g.J i ",
"u -.wX9XeXeX9X*XeXeX0XkXkXkX|.c./.#X X<.- s Q =X7X7XeXeXkXeXeXeX9X9X9X8X7XD.D.G.Q.2 x c _ } ) ) ] [ [ ( ( d ) ] ( ( _ d ' #.q h ",
"` +._.(.(.R.E.n.l.B.M.^.^.M.j.3.r.d.d.*.* p Q n.B.m.m.n.n.M.m.m.n.n.(.b.T.P.j.n.t.1 V C ( d d x x c p G T d V d P d V d ( ` a V ",
"x a ( y = 4 q 9 - w j w 0 * 0 0 w 5 5 0 6 x y H T i t < 4 w 9 e k q s . 6 6 w w p X y d H T R T 5 : > 2 a a y - 8 - , , 1 : ; - ",
"2.3.3.;.| O.+.} _ w h e { +.+.%.o._ }  .$.5.:.=.6.+.4.+...&.l k a s 5.| +.....} +.} ,.>.-.<.;.;.%.+.+.( q h s  ... .o.%.$.$.$.$.",
"&X&X7XeXeXyXeX|.r.u a H n.nXwXjXtXnXkXhXwXwXnXnXkX0XeXeX|.'.L y J / bX9XeXeXkXwXdXcXjXwXjXMXjXjXwXqXjXr.1 d ~ >XeXwXwXwX0X0XwX1X",
"sXsXpXpX3X3X3X{.i.u x p k.qXG.hX$X6X6X6X6X$X8X<X4X>X8X8XS.^.T w c +.cX6X7X|.4XaX,X9X&XG.6XwX6XeXwX,X4X6.4 b E ).6X7X8X0XOX6XwX<X",
"3XlX3X4XjXjXjXN.d.u b c T.3XwXsXwXwX,XwXwXwX4X3X0XjX2XwX|.'.H j V +.MX,X6XwX4X4X3X3XwX0X0XwX0XwXlX1XD.6.q v { }.wXwX3X4XsXsXsX3X",
"6X9X6X7X6XC.F.C.f.2 a p f.9X7X6X6X6X9X6X&X6X0XeX7XwX,XD.C.c.K w p ^ nX7X9X9X6X7XeX6X6X6X6X9X6X6X6X$XG.2.5 z Y D.*X9X6X0X6X6XqXeX",
"0X0X,XkXjX}.{./.i.1 b d h.wX,X3XjX4XjX4X4XwX>X3XwX3X>XN.z.`.J r d :.fX0X0X6X,X,X>X3X3XwXjX4X4X4XgX>X3X5.9 ` E 3X6X8XwXwXwX,X,X6X",
"wXwX,XS.N.c./.x.u.: s p g.nX0XjXwX,X3X3XwXwX0X0XwXN.B.l.N.[.H 5 H :.sX0X0X0X0XwX0XwX,X1X4X>X1X<X0X).2X+.= c T XXwX,X,X,X,XwXwXwX",
"3XwXwX|.N.c./.'.P.G G G d.jX3XjX7XeX,XwXwX,XwX6X<Xl.M.l.M.^.Q H Y ;.3XwXwXjXwXwXeXwX,X3X1XwXwXwXA.B.pX,.1 J Q XXnXwXjX0XwXjX3XwX",
"[ ( ) ) ) ) H P c 4 j s T  .R X.Q Q R  .%._ X.R _ H ' ' ) ( 0 l s ( $...) _ _ } R E  . ._ } R Q X.{ ..s q c s 4.} R  .E R _ ( [ ",
"h q r 5 0 a 0 s 0 r ] ] s y 5 y y = x q + q O B , 5 a a 0 0 r l Z ( ( u - 0 0 0 x O e O 6 x = y a 9 8 7 b ` N H c 0 y = 0 x q h ",
"> ,.FXcXiXcXaXvXlXsX3XsX4XsXcXfXcX;XAXw.3 2 G -XvXcXfXsX5X5XVXiXsXsXbXbXsXcXcXsX!.Q G 2 t.AXdXcXaXvXlXfXlXhXrXwXcX2XcXcXcX:X! 3 ",
"0 | BXmXSXSXNXBXSXBXBXBXBXBXBXBXmXSXmXJ.4 y T 4XBXBXBXBXBXBXBXBXBXBXBXBXBXBXBXBXaXT c i T.NXmXSXBXBXBXBXBXBXBXBXNXBXSXmXBXDX@.w ",
"a | bX0XwX4XwXwXwXwXwXwXwXwXwXwXwX2XS.5.4 d ( >XwXwX3X3XwXwXwXwX,XwXwX3X3XwX>XS.j.1 a 0 i.eX1X4X1X3X3X3X3X3X3X3X0X3X1X,X,X'.G 6 ",
"V :.bX6XwX4X3XwX0X0XwXwX0X0X0X0XwX).z.:.4 ( ( B.wX0X0X3X0XwXwX0X,XwXwX,X3XjX3XN.d., c M b.qX1X4X0X0X0X0X0X0X0X0XwX,XwX,X|.^.H j ",
"s | jX6XwXwX3X6X0XwXwX0X0X3X0X0XkX2XF.4.4 d ( }.wXwX0X0X0XwXwXwXwXwXwX3X0XjX3XA.d.1 c s h.qX1XwX0X0X0X0X0X0X0X0X8X1XwX0X|.^.H j ",
"a | jX6XeXjX0X7X8X0X0X0X0X0XwXwX|.`.F.5.4 d ( >XwX0X0X0X0XwXwX0X0X,X,X0XwX3XoXN.g.y c a k.qX1XwX0X0X0X0X0XwXwX0X0X3XwXS.A.^.H w ",
"V -.jX6XwXwX0X7X0X0X0X0XwXwXwX0XN.M.C.7.w H ( ).wXwX0X0XwXwXwX0XwX,X0XjX0XoXN.N.j.i c s h.eXwX0X0X0X0X0X0X0X0X0XwX3X>Xc.c.'.) w ",
"d *.jX&X0X3X,X6X6X6X,X0X0X0X|.S.A.M.C.6.w H ( B.0X0X0X0X0X0X0X0X,X0X0X3XoXN.c.c.g., x a h.qX8X0X0X0X0X0X0X0X0X0X0XoXN.l.c.'.J 0 ",
"d -.nXeXeXjXwXeXeXwXwXeXkX0X|.N.A.'.F.6.4 d ) 3XeXeXeXeXeXeXeXeXwXkXwX|.N.N.{.}.j.y c d n.kXeXkXeXeXeXeXeXeXeXeX0XA.N.A.oX'.J r ",
"F *.8.y.e.8.t.y.q.q.<.<.e.9.>.;.-.,.:.) u S | 6.r.2.t.t.9.3.9.r.9.2.9.8.4.7.>.=._ H 2 Y ,.u.y.2.8.r.3.3.q.3.q.2.e.:.>.:.:...H u ",
"r s r 9 X X X X   o $ $ $ # . 9 = 4 4 6 6 q s d t . o O . 9 O o o O 9 .   O O = q q w x x a 5 ; 4 . .   $ $   . 9 X O # 9 e $ $ ",
"I.I.j.j.j.P.j.g.7.P P P $.J.y.P.r.e.t.u.J.T.h.i.U.K.K.g.P.K.[ l c  .u.j.y.i.i.i.e.u.J.P.J.i.i.i.g.g.K.&.x v ) K.I.y.g.r.9.y.y.y.",
"&X8X9X9XyXyX9X&X_.Y G S V.mX8XuX9X9XeXeXeX9X9X9XwXwXeXeX9X3X~ , G ;.1X9X9XuX8X8XyX9X9X9X9X9X9XeX*X8XBXe.* i ! VXmXwXyXeX9XyX9XuX",
"wXwX1X,X,X1X<X>X~.u c p p.nX,X1X0X0X,X,X,X,X0X0X1X1X8X&X,X=XE 9 c +.sX6X6X0X3X4X0X6X0X0X0X0X,X>X8X$XVXw.4 B T cXbX>X<X,X8XwX,X,X",
"0X0X0X0X0XgXgX0XI.8 c H g.qXOX0XsX4X4X4XsXjXsX4X0X6X6X7XOXiX) l I 0.lX+X7X6X0XgX>X3XjXjXjXsXjXjXeXOXhX8.7 Z R lXSXjX0X0X0XqX0X0X",
"1X1XwXwXwX4X<X%XE.1 r s h.8XuX4XwX6X0X0X7XwX0X,X1X1X1X8X<X=XU r p ~ xX,X8XwX,X1XwXqXqX6X,X,X0XwXrX%X1X<.X A U xXmX<X<X1X1XwX1XtX",
"6X6X6X6X0XqX0X0Xn.1 j c j.6XeX3X3XwXwXwX,X,XwXjXwXwX0X3X2X;XH c H *.MX,XwXwX0X0X3X4X4XwXwXwX0X0XsX|.,X2.- V R fXNX0XwXeX0X0X,XwX",
"sXjX,XwXjX3X.X2X_.* j s h.kX6X,X&X8X4X1X<X8X$X8XqXwX<X>X|..XH r v >.kXD.wX4X3X8XaX4XwX0XwXjX3XwX1X1X2X6.5 v J DXBX3X0XwXtX<XtX2X",
",X0X$X$X3X}.}.3XT.: B d g.0X0X4X0X0X3XpXjXkX0X3X0X3X).}.oX.XJ 9 x :.jX6XwX4X3X6X<X8X9X6X0X3X,X,X0X,X}.,.0 C Y dXMX,X6X,X,XS.wX0X",
"9X9X9X9XwX|.D.G.M.D p S k.qX9XwXkXkXeXqXkXqXkXkX6X,X>X,X0X2X! , p / 7X7XeXeXeXeX9X9X*X*X9XeXyXeX6X6X,X3.> p ! xXBXeXeXeXkXeXeX7X",
"j.n.R.h.P.P.g.f.u.p s T t.(.^.b.b.R.m.M.M.h.R.R.n.b.i.P.T.T.) s M +.(.M.(.R.R.^.M.M.R.R.^.j._.R.h.P.P.+.y V _ -X`.^.!.T.R.R.R.R.",
"q 6 r X O 4 w 0 4   h h b s 0 0 # < * , j e 9 9 0 0 4 4 = w O @ w a ( s a w 9 9 5 q b k w ; 5 4 9 6 9 + + k w c f a r 9 4 7 6 j ",
"x d w.O.:.:.:.| -.:.6.w.8.;.-.-.$.+.X.P w j a ..~ -.:.-.-.-.:.5.9.8.2.;.;.-.+.@...5 e w _ -.>...+.O.O.:.,.e.9.2.2.,.1.O.:.5.s 9 ",
"K ^ wX7XeXeXeXwXeX9X&X&XeXeXeXeXjX0XA.2.8 ' ! 3X8X9XeXnXeX8X9X6X9X9X0X9XeXeXyXyX`.S p G f.eXyXeXeXyXeX8X&X*XyXeXkX7X$X&XeXkX*.1 ",
"c ..cX6X7XOX0XsX2XwX,X8X0X3XsX4XwX,XM.,.X B G =XrX1X3X3X1X<XwX0X3X5X2XsX0X0X3XXXW.- x d g.,X0XgX0X0X4XwX0X,X4X=XpX4X4X,XOX@X) q ",
"T ! kX*X&X1X8X0X6X6XqX9X9X6X6X6XlX4Xz.:.e v U %XwX6X0X7XwX0X6X6X0XqX6X6X6XqX6XF.d., l s T.7X8X3X6X6X6X6X6X6X6X7XeXD.0XeXZ.{.J w ",
"B } lX0X4XxXsX4X4X4X4X4X4X4X4XsX{.S.A.,.w c U >XwX4X4X4X4X4X4XwX2X3X3X3X4XsX3X).d.y c d h.7X1XwX3X3X3X3X3X3X3X3XwX1XtXtXA.^.H j ",
"B O.fX3X3X4X4X0XwXwXwXwXjXjXpX4Xc.l.Z.:.0 I U >XwXwXwXwXwX0XwXwXwXwXwXjXjXjX3X.Xg., P d h.qX%X0XjXjXjXjXjXjXjXjX,X1X4X<XA.^.H r ",
"2 / jX9X6XqX9X9X&X&X6X7X6X6XF.C./.M. X:.- I T 2X9X&X&X&X&X&X&X7X6X&X&X9X6XD.C.C.J., f u g.NX1XjX6X6X6X6X6X6X6X6XqXqX|.A.{.'.J 8 ",
"G ;.2X4XwXjX3X>XwXwXwXjXjX4X}.N.Y.T.@X5.y I E [.bXjX3X4XjXlXsXsXwX,X1XwX3X}././.K.a I H y.lX;XfXwXwXwXwXwXwXwXwXpXpX`.Y.^.U.X.z ",
"a d E E }  .) E E E E E ) ) ) T Q U X.s 5 H p |  .) T ) ) ) ) ) E R E E _ T H P H = f s E =.W ! E E E E E E E E W } } Y T T , 0 ",
"#.x 0 5 7 7 6 q q 9 9 9 q q w w y 9 8 0 x ' ( J s w 0 w w w w w w q 9 9 w w w w y 9 P ] T H , : w w w w w w w w < 9 w 0 0 t t j ",
"H p p T P a 0 r w w r r w 0 0 0 w h l e 9 a V H d d d d s a s c r w 0 9 0 0 w w w t a V N c C V w w w w w w w w j 7 n a w w w a ",
"_ _ _ _ ( T d d H . l e p F S K c c c c c ` ] [ Q Q Q ! F J d Z g e { p s c c d c c V ] [ [ [ _ K S F p e b 9 L c c c c c c c c ",
"XX0X0X0X0X0XXX/.t.s a s u.pX:X:X,X,X,X,X,X,X0X0XaXaX;XaX`.h.) w ) ;.2X3XgXzXpX3X,X,X,X,X0X6X6X6XdXdXiX,.9 a { _.,X,X,X,X,X,X,X,X",
"&X9X9X&X7XeX6XF.g.i y p p.kX4X4X9X7X7X6X6X6X6X7X0X3X1XwX3X^.Q = S ^ ,X9X9XqX6X*X6X6X9X9X6X6X6X6X0X4XhXe.a d E 2X9X6X6X6X6X6X6X9X",
"4X4X1X<X1XjX3X).r.i H T k.qX,XqXpXsXsXsXsXsXsXsX7X7XwX6XD.M.Q a V 5.vX4X<X2X<X1X2XpXsXsXfXsXsX4X6XS.A.*.5 z W S.sXsXsXpXpXsXsXsX",
"jX0X0X0XgXXX X{.i., y i r.kX1XeX0X0X0X0X0XwX0X0X7XwXwX|.A.x.H w z 4.fXwXgXgX0X0X6X0XwXwXwX0X0X0XqXS.|.:.6 c E >XwX0X0X0X0X0X0XwX",
"wX0X0XqX0XoXc.c.U.i c d i.kX<X0X6X6X6X6X6X6X6X6X7X0X|.N.{.`.) j c :.4X6X7XeXqX6XeX9X6X6X6X7XwX0Xz.V.{.4.l ` W .XwXwX7X7X7X7XwXwX",
"1X1X1X,XS.N.l.x.y., c M i.kX%XwX4X4X3X3X3X3X3X3XqX0XoXs.z.^.H q M 1.<X$X$X1X1X%X3X3X2X3X4X4X2X}. Xf.{.O.9 c T XX4X3X3X3X3X3X3X4X",
"hXkXhX|.A.{. X XI.1 d d i.NX1XnXeXeXeXeXeXeXeXeXqXkXjXA.oX.XH w z >.jXeXeXkXkXwXeXeXeXkXeX0XS.z. XM.XX,., d Y pXeXeXeXeXeXeXeXeX",
"e.2.3.3.-.-.-.;._ H u Y :.e.e.<.<.2.2.2.9.2.2.3.2.2.;.>.>.| J 2 F ^ 9.y.e.8.8.8.3.d.2.8.<.r.;.;.:.4.$.' f K  .6.g.8.6.8.9.3.9.t.",
"g @ O O @ g +   e q q r x a 5 X . . # O $ $ o # O O O + + g g g m B m 9 X X   .     o % o 9   . * = 4 4 9 9 s d 9 . #   . .   $ ",
"d  .T.E.~.!.E.T.J.L.W.Q.Q.Q.~.T.W.W.].4.P P ( K.T.R.T.b.b.b.T.T.~.!.!.T.P.T.~.!.K.) ` P H.].W.].b.i.a.L.Q.Q.Q.b.E.P.W.J.!.]. .` ",
"3 <.SXGXBXBXBXBXmXmXmXmXmXmXmXCXCXBXGXh.S G ! cXmXCXCXCXBXmXCXCXmXmXCXCXCXCXGXCXvXQ G S (.GXmXBXBXSXSXSXSXBXBXBXZXmXCXmXGXSX/ G ",
"a :.cXwXwXbXsX4XwXwXwXwX4X4X4X4XsX<XsX6.y V R ;X3X3XsXsXsXsXwX4XwXwX4X4X4X4X4X3X!.1 s i b.bX4XsXjXjXjXsXpXpXjXjXwXjXMX4X2X_.H a ",
"H -.1X$X6X9X0X6X3X3X4XsXsXfXfXsX3XA.N.=.7 ` L ).eXeXwX0X0X6X6X6XgXgX0X0XhXhXhX0XR.: c H j.0X6X0X1X1X<X1X1X4X1X1X0X0XgX+X{.'.I l ",
"a  .cX0XwXjXsXlXeXwX0X0X6X6X6X6XtX$XB.,.4 B Y >X0X4X3X3X3X4XjXjX1X1X1X1XwX1X,XS.n.1 r d p.8X8X1X8X&X&X&X8X8X&X&XrX1X,XeXS.^.T 9 ",
"P | MX7X7X6X>XsX3X3X0XwXwX0X0XqX3XD.N.6.6 b Q S.7X9X7X8X8X0X8X6XwXwX0X0X0XwXwX0Xj.u x ( k.9XqX4X0XgXjXgX0X0XgXhX1XwX6XnXF.f.) x "
};
